; generated by PrusaSlicer 2.3.0+win64 on 2022-03-10 at 20:03:50 UTC

; 

; external perimeters extrusion width = 0.45mm
; perimeters extrusion width = 0.45mm
; infill extrusion width = 0.45mm
; solid infill extrusion width = 0.45mm
; top infill extrusion width = 0.40mm
; first layer extrusion width = 0.42mm

; external perimeters extrusion width = 0.45mm
; perimeters extrusion width = 0.45mm
; infill extrusion width = 0.45mm
; solid infill extrusion width = 0.45mm
; top infill extrusion width = 0.40mm
; first layer extrusion width = 0.42mm

; external perimeters extrusion width = 0.45mm
; perimeters extrusion width = 0.45mm
; infill extrusion width = 0.45mm
; solid infill extrusion width = 0.45mm
; top infill extrusion width = 0.40mm
; first layer extrusion width = 0.42mm

M73 P0 R155
M73 Q0 S156
M201 X1000 Y1000 Z200 E8000 ; sets maximum accelerations, mm/sec^2
M203 X200 Y200 Z12 E120 ; sets maximum feedrates, mm/sec
M204 P1250 R1250 T1250 ; sets acceleration (P, T) and retract acceleration (R), mm/sec^2
M205 X8.00 Y8.00 Z0.40 E4.50 ; sets the jerk limits, mm/sec
M205 S0 T0 ; sets the minimum extruding and travel feed rate, mm/sec
M107
;TYPE:Custom
M862.3 P "MK3SMMU2S" ; printer model check
M862.1 P0.4 ; nozzle diameter check
M115 U3.9.2 ; tell printer latest fw version
G90 ; use absolute coordinates
M83 ; extruder relative mode
M104 S215 ; set extruder temp
M140 S60 ; set bed temp
M190 S60 ; wait for bed temp
M109 S215 ; wait for extruder temp
G28 W ; home all without mesh bed level
G80 ; mesh bed leveling

; Send the filament type to the MMU2.0 unit.
; E stands for extruder number, F stands for filament type (0: default; 1:flex; 2: PVA)
M403 E0 F0
M403 E1 F0
M403 E2 F0
M403 E3 F0
M403 E4 F0


;go outside print area
G1 Y-3.0 F1000.0
G1 Z0.4 F1000.0
; select extruder
T0
; initial load
G1 X55.0 E29.0 F1073.0
G1 X5.0 E29.0 F1800.0
G1 X55.0 E8.0 F2000.0
G1 Z0.3 F1000.0
G92 E0.0
G1 X240.0 E25.0 F2200.0
G1 Y-2.0 F1000.0
G1 X55.0 E25 F1400.0
G1 Z0.20 F1000.0
G1 X5.0 E4.0 F1000.0
G92 E0.0


M221 S95
G92 E0.0

; Don't change E values below. Excessive value can damage the printer.
M907 E430 ; set extruder motor current
G21 ; set units to millimeters
G90 ; use absolute coordinates
M83 ; use relative distances for extrusion
M900 K0.05 ; Filament gcode LA 1.5
M900 K30 ; Filament gcode LA 1.0
;LAYER_CHANGE
;Z:0.2
;HEIGHT:0.2
;BEFORE_LAYER_CHANGE
G92 E0.0
;0.2


G1 E-0.80000 F2100.000
G1 Z0.400 F10800.000
;AFTER_LAYER_CHANGE
;0.2
G1 X109.239 Y68.979
G1 Z0.200
G1 E0.80000 F2100.000
M204 S1000
;TYPE:Skirt
;WIDTH:0.42
G1 F1200.000
G1 X110.007 Y68.838 E0.02449
G1 X140.020 Y68.838 E0.94104
G1 X140.873 Y68.998 E0.02720
G1 X141.611 Y69.452 E0.02720
G1 X150.296 Y78.137 E0.38509
M73 Q0 S155
G1 X186.953 Y120.814 E1.76397
M73 P0 R154
G1 X187.241 Y121.235 E0.01597
G1 X187.450 Y121.769 E0.01799
G1 X187.525 Y122.342 E0.01811
G1 X187.524 Y130.763 E0.26404
G1 X187.317 Y131.682 E0.02954
G1 X186.848 Y132.371 E0.02614
G1 X178.560 Y140.639 E0.36703
G1 X177.879 Y141.021 E0.02449
G1 X177.111 Y141.162 E0.02449
G1 X147.704 Y141.162 E0.92203
G1 X72.868 Y139.710 E2.34686
G1 X72.115 Y139.517 E0.02437
G1 X71.462 Y139.089 E0.02449
G1 X62.999 Y130.608 E0.37567
G1 X62.611 Y129.913 E0.02496
G1 X62.475 Y129.132 E0.02484
G1 X62.478 Y120.454 E0.27212
G1 X62.614 Y119.765 E0.02201
G1 X62.945 Y119.146 E0.02201
G1 X99.778 Y78.124 E1.72860
G1 X108.558 Y69.361 E0.38894
G1 X109.187 Y69.008 E0.02261
; printing object Body1 id:0 copy 0
;WIPE_START
G1 F8640.000
G1 X110.007 Y68.838 E-0.19352
G1 X112.461 Y68.838 E-0.56648
;WIPE_END
G1 E-0.04000 F2100.000
G1 Z0.600 F10800.000
G1 X149.468 Y118.498
G1 Z0.200
G1 E0.80000 F2100.000
;TYPE:Perimeter
G1 F1200.000
G1 X175.327 Y118.498 E0.81080
G1 X180.935 Y124.105 E0.24865
G1 X180.935 Y128.965 E0.15236
G1 X175.327 Y134.572 E0.24865
G1 X149.468 Y134.572 E0.81080
G1 X143.861 Y128.965 E0.24865
G1 X143.861 Y124.105 E0.15236
G1 X149.426 Y118.540 E0.24676
G1 X149.624 Y118.875 F10800.000
;TYPE:External perimeter
G1 F1200.000
G1 X175.171 Y118.875 E0.80100
G1 X180.558 Y124.262 E0.23885
G1 X180.558 Y128.808 E0.14256
G1 X175.171 Y134.195 E0.23885
G1 X149.624 Y134.195 E0.80100
G1 X144.238 Y128.808 E0.23885
G1 X144.238 Y124.262 E0.14256
G1 X149.582 Y118.917 E0.23697
G1 X149.690 Y118.480 F10800.000
;WIPE_START
G1 F8640.000
G1 X152.873 Y118.912 E-0.76000
;WIPE_END
G1 E-0.04000 F2100.000
G1 Z0.600 F10800.000
G1 X148.049 Y115.072
G1 Z0.200
G1 E0.80000 F2100.000
;TYPE:Perimeter
G1 F1200.000
G1 X176.746 Y115.072 E0.89978
G1 X184.361 Y122.686 E0.33763
G1 X184.361 Y130.384 E0.24134
G1 X176.746 Y137.998 E0.33763
G1 X148.049 Y137.998 E0.89978
G1 X140.435 Y130.384 E0.33763
G1 X140.435 Y122.686 E0.24134
G1 X148.007 Y115.114 E0.33575
G1 X147.893 Y114.695 F10800.000
;TYPE:External perimeter
G1 F1200.000
G1 X176.903 Y114.695 E0.90958
G1 X184.738 Y122.530 E0.34743
G1 X184.738 Y130.540 E0.25114
G1 X176.903 Y138.375 E0.34743
G1 X147.893 Y138.375 E0.90958
G1 X140.058 Y130.540 E0.34743
G1 X140.058 Y122.530 E0.25114
G1 X147.851 Y114.737 E0.34554
G1 X148.205 Y114.945 F10800.000
;WIPE_START
G1 F8640.000
G1 X151.142 Y114.733 E-0.76000
;WIPE_END
G1 E-0.04000 F2100.000
G1 Z0.600 F10800.000
G1 X176.459 Y115.185
G1 Z0.200
G1 E0.80000 F2100.000
;TYPE:Solid infill
;WIDTH:0.421196
G1 F1200.000
G1 X184.078 Y122.804 E0.33892
G1 X184.078 Y123.339 E0.01683
G1 X176.093 Y115.355 E0.35517
G1 X175.558 Y115.355 E0.01683
G1 X184.078 Y123.874 E0.37897
G1 X184.078 Y124.409 E0.01683
G1 X175.023 Y115.355 E0.40276
G1 X174.488 Y115.355 E0.01683
G1 X184.078 Y124.944 E0.42656
G1 X184.078 Y125.479 E0.01683
G1 X173.954 Y115.355 E0.45036
G1 X173.419 Y115.355 E0.01683
G1 X184.078 Y126.014 E0.47415
G1 X184.078 Y126.549 E0.01683
G1 X172.884 Y115.355 E0.49795
G1 X172.349 Y115.355 E0.01683
G1 X184.078 Y127.084 E0.52175
G1 X184.078 Y127.619 E0.01683
G1 X181.218 Y124.759 E0.12723
G1 X181.218 Y125.294 E0.01683
G1 X184.078 Y128.154 E0.12723
G1 X184.078 Y128.689 E0.01683
G1 X181.218 Y125.829 E0.12723
G1 X181.218 Y126.364 E0.01683
G1 X184.078 Y129.224 E0.12723
G1 X184.078 Y129.759 E0.01683
G1 X181.218 Y126.899 E0.12723
G1 X181.218 Y127.434 E0.01683
G1 X184.064 Y130.280 E0.12662
G1 X183.797 Y130.548 E0.01190
G1 X181.218 Y127.969 E0.11472
G1 X181.218 Y128.504 E0.01683
G1 X183.529 Y130.815 E0.10282
G1 X183.262 Y131.083 E0.01190
G1 X181.218 Y129.039 E0.09093
G1 X181.218 Y129.082 E0.00136
G1 X180.972 Y129.328 E0.01094
G1 X182.994 Y131.350 E0.08997
G1 X182.727 Y131.618 E0.01190
G1 X180.704 Y129.595 E0.08997
G1 X180.437 Y129.863 E0.01190
G1 X182.459 Y131.885 E0.08997
G1 X182.192 Y132.153 E0.01190
G1 X180.169 Y130.130 E0.08997
G1 X179.902 Y130.397 E0.01190
G1 X181.924 Y132.420 E0.08997
G1 X181.657 Y132.687 E0.01190
G1 X179.634 Y130.665 E0.08997
G1 X179.367 Y130.932 E0.01190
G1 X181.389 Y132.955 E0.08997
G1 X181.122 Y133.222 E0.01190
G1 X179.099 Y131.200 E0.08997
G1 X178.832 Y131.467 E0.01190
G1 X180.854 Y133.490 E0.08997
G1 X180.587 Y133.757 E0.01190
G1 X178.564 Y131.735 E0.08997
G1 X178.297 Y132.002 E0.01190
G1 X180.319 Y134.025 E0.08997
G1 X180.052 Y134.292 E0.01190
G1 X178.029 Y132.270 E0.08997
G1 X177.762 Y132.537 E0.01190
G1 X179.784 Y134.560 E0.08997
G1 X179.517 Y134.827 E0.01190
G1 X177.494 Y132.805 E0.08997
G1 X177.227 Y133.072 E0.01190
G1 X179.250 Y135.095 E0.08997
G1 X178.982 Y135.362 E0.01190
G1 X176.960 Y133.340 E0.08997
G1 X176.692 Y133.607 E0.01190
G1 X178.715 Y135.630 E0.08997
G1 X178.447 Y135.897 E0.01190
G1 X176.425 Y133.875 E0.08997
G1 X176.157 Y134.142 E0.01190
G1 X178.180 Y136.165 E0.08997
G1 X177.912 Y136.432 E0.01190
G1 X175.890 Y134.410 E0.08997
G1 X175.622 Y134.677 E0.01190
G1 X177.645 Y136.700 E0.08997
G1 X177.377 Y136.967 E0.01190
G1 X175.265 Y134.855 E0.09396
G1 X174.730 Y134.855 E0.01683
G1 X177.110 Y137.235 E0.10586
G1 X176.842 Y137.502 E0.01190
G1 X174.195 Y134.855 E0.11776
G1 X173.660 Y134.855 E0.01683
G1 X176.520 Y137.715 E0.12723
G1 X175.985 Y137.715 E0.01683
G1 X173.125 Y134.855 E0.12723
G1 X172.590 Y134.855 E0.01683
G1 X175.450 Y137.715 E0.12723
G1 X174.915 Y137.715 E0.01683
G1 X172.055 Y134.855 E0.12723
G1 X171.520 Y134.855 E0.01683
G1 X174.380 Y137.715 E0.12723
G1 X173.845 Y137.715 E0.01683
G1 X170.985 Y134.855 E0.12723
G1 X170.450 Y134.855 E0.01683
G1 X173.310 Y137.715 E0.12723
G1 X172.775 Y137.715 E0.01683
G1 X169.915 Y134.855 E0.12723
G1 X169.380 Y134.855 E0.01683
G1 X172.240 Y137.715 E0.12723
G1 X171.705 Y137.715 E0.01683
G1 X168.845 Y134.855 E0.12723
G1 X168.310 Y134.855 E0.01683
G1 X171.171 Y137.715 E0.12723
G1 X170.636 Y137.715 E0.01683
G1 X167.775 Y134.855 E0.12723
G1 X167.240 Y134.855 E0.01683
G1 X170.101 Y137.715 E0.12723
G1 X169.566 Y137.715 E0.01683
G1 X166.705 Y134.855 E0.12723
G1 X166.170 Y134.855 E0.01683
G1 X169.031 Y137.715 E0.12723
G1 X168.496 Y137.715 E0.01683
G1 X165.635 Y134.855 E0.12723
G1 X165.100 Y134.855 E0.01683
G1 X167.961 Y137.715 E0.12723
G1 X167.426 Y137.715 E0.01683
G1 X164.565 Y134.855 E0.12723
G1 X164.031 Y134.855 E0.01683
G1 X166.891 Y137.715 E0.12723
G1 X166.356 Y137.715 E0.01683
G1 X163.496 Y134.855 E0.12723
G1 X162.961 Y134.855 E0.01683
G1 X165.821 Y137.715 E0.12723
G1 X165.286 Y137.715 E0.01683
G1 X162.426 Y134.855 E0.12723
G1 X161.891 Y134.855 E0.01683
G1 X164.751 Y137.715 E0.12723
G1 X164.216 Y137.715 E0.01683
G1 X161.356 Y134.855 E0.12723
G1 X160.821 Y134.855 E0.01683
G1 X163.681 Y137.715 E0.12723
G1 X163.146 Y137.715 E0.01683
G1 X160.286 Y134.855 E0.12723
G1 X159.751 Y134.855 E0.01683
G1 X162.611 Y137.715 E0.12723
G1 X162.076 Y137.715 E0.01683
G1 X159.216 Y134.855 E0.12723
G1 X158.681 Y134.855 E0.01683
G1 X161.541 Y137.715 E0.12723
G1 X161.006 Y137.715 E0.01683
G1 X158.146 Y134.855 E0.12723
G1 X157.611 Y134.855 E0.01683
G1 X160.471 Y137.715 E0.12723
G1 X159.936 Y137.715 E0.01683
G1 X157.076 Y134.855 E0.12723
G1 X156.541 Y134.855 E0.01683
G1 X159.401 Y137.715 E0.12723
G1 X158.866 Y137.715 E0.01683
G1 X156.006 Y134.855 E0.12723
G1 X155.471 Y134.855 E0.01683
G1 X158.331 Y137.715 E0.12723
G1 X157.796 Y137.715 E0.01683
G1 X154.936 Y134.855 E0.12723
G1 X154.401 Y134.855 E0.01683
G1 X157.261 Y137.715 E0.12723
G1 X156.727 Y137.715 E0.01683
G1 X153.866 Y134.855 E0.12723
G1 X153.331 Y134.855 E0.01683
G1 X156.192 Y137.715 E0.12723
G1 X155.657 Y137.715 E0.01683
G1 X152.796 Y134.855 E0.12723
G1 X152.261 Y134.855 E0.01683
G1 X155.122 Y137.715 E0.12723
G1 X154.587 Y137.715 E0.01683
G1 X151.726 Y134.855 E0.12723
M73 Q0 S154
G1 X151.191 Y134.855 E0.01683
G1 X154.052 Y137.715 E0.12723
G1 X153.517 Y137.715 E0.01683
G1 X150.656 Y134.855 E0.12723
G1 X150.121 Y134.855 E0.01683
G1 X153.151 Y137.885 E0.13478
;WIPE_START
G1 F8640.000
G1 X150.824 Y135.557 E-0.76000
;WIPE_END
G1 E-0.04000 F2100.000
G1 Z0.600 F10800.000
G1 X171.644 Y115.185
G1 Z0.200
G1 E0.80000 F2100.000
G1 F1200.000
G1 X174.674 Y118.215 E0.13478
G1 X174.139 Y118.215 E0.01683
G1 X171.279 Y115.355 E0.12723
G1 X170.744 Y115.355 E0.01683
G1 X173.604 Y118.215 E0.12723
G1 X173.069 Y118.215 E0.01683
G1 X170.209 Y115.355 E0.12723
G1 X169.674 Y115.355 E0.01683
G1 X172.534 Y118.215 E0.12723
G1 X171.999 Y118.215 E0.01683
G1 X169.139 Y115.355 E0.12723
G1 X168.604 Y115.355 E0.01683
G1 X171.464 Y118.215 E0.12723
G1 X170.929 Y118.215 E0.01683
G1 X168.069 Y115.355 E0.12723
M73 P0 R153
G1 X167.534 Y115.355 E0.01683
G1 X170.394 Y118.215 E0.12723
G1 X169.859 Y118.215 E0.01683
G1 X166.999 Y115.355 E0.12723
G1 X166.464 Y115.355 E0.01683
G1 X169.324 Y118.215 E0.12723
G1 X168.789 Y118.215 E0.01683
G1 X165.929 Y115.355 E0.12723
G1 X165.394 Y115.355 E0.01683
G1 X168.254 Y118.215 E0.12723
G1 X167.719 Y118.215 E0.01683
G1 X164.859 Y115.355 E0.12723
G1 X164.324 Y115.355 E0.01683
G1 X167.184 Y118.215 E0.12723
G1 X166.649 Y118.215 E0.01683
G1 X163.789 Y115.355 E0.12723
G1 X163.254 Y115.355 E0.01683
G1 X166.115 Y118.215 E0.12723
G1 X165.580 Y118.215 E0.01683
G1 X162.719 Y115.355 E0.12723
G1 X162.184 Y115.355 E0.01683
G1 X165.045 Y118.215 E0.12723
G1 X164.510 Y118.215 E0.01683
G1 X161.649 Y115.355 E0.12723
G1 X161.114 Y115.355 E0.01683
G1 X163.975 Y118.215 E0.12723
G1 X163.440 Y118.215 E0.01683
G1 X160.579 Y115.355 E0.12723
G1 X160.044 Y115.355 E0.01683
G1 X162.905 Y118.215 E0.12723
G1 X162.370 Y118.215 E0.01683
G1 X159.510 Y115.355 E0.12723
G1 X158.975 Y115.355 E0.01683
G1 X161.835 Y118.215 E0.12723
M73 P1 R153
G1 X161.300 Y118.215 E0.01683
G1 X158.440 Y115.355 E0.12723
M73 Q1 S154
G1 X157.905 Y115.355 E0.01683
G1 X160.765 Y118.215 E0.12723
G1 X160.230 Y118.215 E0.01683
G1 X157.370 Y115.355 E0.12723
G1 X156.835 Y115.355 E0.01683
G1 X159.695 Y118.215 E0.12723
G1 X159.160 Y118.215 E0.01683
G1 X156.300 Y115.355 E0.12723
G1 X155.765 Y115.355 E0.01683
G1 X158.625 Y118.215 E0.12723
G1 X158.090 Y118.215 E0.01683
G1 X155.230 Y115.355 E0.12723
G1 X154.695 Y115.355 E0.01683
G1 X157.555 Y118.215 E0.12723
G1 X157.020 Y118.215 E0.01683
G1 X154.160 Y115.355 E0.12723
G1 X153.625 Y115.355 E0.01683
G1 X156.485 Y118.215 E0.12723
G1 X155.950 Y118.215 E0.01683
G1 X153.090 Y115.355 E0.12723
G1 X152.555 Y115.355 E0.01683
G1 X155.415 Y118.215 E0.12723
G1 X154.880 Y118.215 E0.01683
G1 X152.020 Y115.355 E0.12723
G1 X151.485 Y115.355 E0.01683
G1 X154.345 Y118.215 E0.12723
G1 X153.810 Y118.215 E0.01683
G1 X150.950 Y115.355 E0.12723
G1 X150.415 Y115.355 E0.01683
G1 X153.275 Y118.215 E0.12723
G1 X152.740 Y118.215 E0.01683
G1 X149.880 Y115.355 E0.12723
G1 X149.345 Y115.355 E0.01683
G1 X152.205 Y118.215 E0.12723
G1 X151.671 Y118.215 E0.01683
G1 X148.810 Y115.355 E0.12723
G1 X148.275 Y115.355 E0.01683
G1 X151.136 Y118.215 E0.12723
G1 X150.601 Y118.215 E0.01683
G1 X147.953 Y115.568 E0.11776
G1 X147.686 Y115.835 E0.01190
G1 X150.066 Y118.215 E0.10586
G1 X149.531 Y118.215 E0.01683
G1 X147.418 Y116.103 E0.09396
G1 X147.151 Y116.370 E0.01190
G1 X149.173 Y118.393 E0.08997
G1 X148.906 Y118.660 E0.01190
G1 X146.883 Y116.638 E0.08997
G1 X146.616 Y116.905 E0.01190
G1 X148.638 Y118.928 E0.08997
G1 X148.371 Y119.195 E0.01190
G1 X146.348 Y117.173 E0.08997
G1 X146.081 Y117.440 E0.01190
G1 X148.103 Y119.463 E0.08997
G1 X147.836 Y119.730 E0.01190
G1 X145.813 Y117.708 E0.08997
G1 X145.546 Y117.975 E0.01190
G1 X147.568 Y119.998 E0.08997
G1 X147.301 Y120.265 E0.01190
G1 X145.278 Y118.243 E0.08997
G1 X145.011 Y118.510 E0.01190
G1 X147.034 Y120.533 E0.08997
G1 X146.766 Y120.800 E0.01190
G1 X144.744 Y118.778 E0.08997
G1 X144.476 Y119.045 E0.01190
G1 X146.499 Y121.068 E0.08997
G1 X146.231 Y121.335 E0.01190
G1 X144.209 Y119.313 E0.08997
G1 X143.941 Y119.580 E0.01190
G1 X145.964 Y121.603 E0.08997
G1 X145.696 Y121.870 E0.01190
G1 X143.674 Y119.848 E0.08997
G1 X143.406 Y120.115 E0.01190
G1 X145.429 Y122.138 E0.08997
G1 X145.161 Y122.405 E0.01190
G1 X143.139 Y120.382 E0.08997
G1 X142.871 Y120.650 E0.01190
G1 X144.894 Y122.672 E0.08997
G1 X144.626 Y122.940 E0.01190
G1 X142.604 Y120.917 E0.08997
G1 X142.336 Y121.185 E0.01190
G1 X144.359 Y123.207 E0.08997
G1 X144.091 Y123.475 E0.01190
G1 X142.069 Y121.452 E0.08997
G1 X141.801 Y121.720 E0.01190
G1 X143.824 Y123.742 E0.08997
G1 X143.578 Y123.988 E0.01094
G1 X143.578 Y124.032 E0.00136
G1 X141.534 Y121.987 E0.09093
G1 X141.266 Y122.255 E0.01190
G1 X143.578 Y124.566 E0.10283
G1 X143.578 Y125.101 E0.01683
G1 X140.999 Y122.522 E0.11473
G1 X140.731 Y122.790 E0.01190
G1 X143.578 Y125.636 E0.12662
G1 X143.578 Y126.171 E0.01683
G1 X140.718 Y123.311 E0.12723
G1 X140.718 Y123.846 E0.01683
G1 X143.578 Y126.706 E0.12723
G1 X143.578 Y127.241 E0.01683
G1 X140.718 Y124.381 E0.12723
G1 X140.718 Y124.916 E0.01683
G1 X143.578 Y127.776 E0.12723
G1 X143.578 Y128.311 E0.01683
G1 X140.718 Y125.451 E0.12723
G1 X140.718 Y125.986 E0.01683
G1 X152.447 Y137.715 E0.52174
G1 X151.912 Y137.715 E0.01683
G1 X140.718 Y126.521 E0.49794
G1 X140.718 Y127.056 E0.01683
G1 X151.377 Y137.715 E0.47415
G1 X150.842 Y137.715 E0.01683
G1 X140.718 Y127.591 E0.45035
G1 X140.718 Y128.126 E0.01683
G1 X150.307 Y137.715 E0.42656
G1 X149.772 Y137.715 E0.01683
G1 X140.718 Y128.661 E0.40276
G1 X140.718 Y129.196 E0.01683
G1 X149.237 Y137.715 E0.37896
G1 X148.702 Y137.715 E0.01683
G1 X140.718 Y129.731 E0.35517
G1 X140.718 Y130.266 E0.01683
G1 X148.337 Y137.885 E0.33892
;WIPE_START
G1 F8640.000
G1 X146.009 Y135.557 E-0.76000
;WIPE_END
G1 E-0.04000 F2100.000
