; generated by PrusaSlicer 2.1.0+win64 on 2020-04-24 at 11:25:24 UTC

; 

; external perimeters extrusion width = 0.60mm
; perimeters extrusion width = 0.50mm
; infill extrusion width = 0.50mm
; solid infill extrusion width = 0.50mm
; top infill extrusion width = 0.45mm
; support material extrusion width = 0.38mm
; first layer extrusion width = 0.42mm

M73 P0 R345
M73 Q0 S350
M201 X1000 Y1000 Z1000 E5000 ; sets maximum accelerations, mm/sec^2
M203 X200 Y200 Z12 E120 ; sets maximum feedrates, mm/sec
M204 P1250 R1250 T1250 ; sets acceleration (P, T) and retract acceleration (R), mm/sec^2
M205 X8.00 Y8.00 Z0.40 E1.50 ; sets the jerk limits, mm/sec
M205 S0 T0 ; sets the minimum extruding and travel feed rate, mm/sec
M107
M862.3 P "MK3SMMU2S" ; printer model check
M862.1 P0.4 ; nozzle diameter check
M115 U3.8.1 ; tell printer latest fw version
G90 ; use absolute coordinates
M83 ; extruder relative mode
M104 S215 ; set extruder temp
M140 S60 ; set bed temp
Tx
M190 S60 ; wait for bed temp
M109 S215 ; wait for extruder temp
G28 W ; home all without mesh bed level
G80 ; mesh bed leveling

G21 ; set units to millimeters

;go outside print area
G1 Y-3.0 F1000.0
G1 Z0.4 F1000.0
; select extruder
Tc
; purge line
G1 X55.0 F2000.0
G1 Z0.3 F1000.0
G92 E0.0
G1 X240.0 E25.0 F2200.0
M73 Q0 S350
M73 P0 R345
G1 Y-2.0 F1000.0
G1 X55.0 E25 F1400.0
G1 Z0.20 F1000.0
G1 X5.0 E4.0 F1000.0

M221 S95
G92 E0.0
G21 ; set units to millimeters
G90 ; use absolute coordinates
M83 ; use relative distances for extrusion
M900 K30 ; Filament gcode
;BEFORE_LAYER_CHANGE
G92 E0.0
;0.2


G1 E-0.80000 F2100.00000
G1 Z0.600 F10800.000
;AFTER_LAYER_CHANGE
;0.2
G1 X10.784 Y97.926
G1 Z0.200
G1 E0.80000 F2100.00000
M204 S1000
G1 F1200
G1 X11.343 Y97.225 E0.02810
G1 X15.670 Y94.815 E0.15529
G1 X38.843 Y83.229 E0.81232
G1 X49.087 Y78.453 E0.35437
G1 X157.975 Y57.550 E3.47646
G1 X193.736 Y57.528 E1.12125
G1 X194.324 Y57.608 E0.01862
G1 X194.869 Y57.844 E0.01862
G1 X236.071 Y83.152 E1.51610
G1 X236.493 Y83.499 E0.01714
G1 X236.816 Y83.941 E0.01714
G1 X237.018 Y84.445 E0.01703
G1 X237.089 Y84.987 E0.01714
G1 X237.089 Y125.019 E1.25518
G1 X236.998 Y125.628 E0.01930
G1 X236.740 Y126.187 E0.01930
G1 X236.421 Y126.576 E0.01578
G1 X236.018 Y126.883 E0.01589
G1 X194.841 Y151.075 E1.49739
G1 X194.342 Y151.289 E0.01703
G1 X193.740 Y151.375 E0.01908
G1 X157.981 Y151.353 E1.12120
G1 X46.953 Y130.313 E3.54314
G1 X41.174 Y127.827 E0.19725
G1 X13.287 Y113.882 E0.97762
G1 X12.899 Y113.609 E0.01487
G1 X12.580 Y113.258 E0.01487
G1 X10.902 Y110.842 E0.09223
G1 X10.634 Y110.256 E0.02021
G1 X10.549 Y109.668 E0.01862
G1 X10.552 Y98.791 E0.34103
G1 X10.768 Y97.984 E0.02622
G1 F8640
G1 X11.343 Y97.225 E-0.21973
G1 X13.387 Y96.087 E-0.54027
G1 E-0.04000 F2100.00000
G1 Z0.800 F10800.000
G1 X12.738 Y98.912
G1 Z0.200
G1 E0.80000 F2100.00000
G1 F1200
G1 X12.738 Y109.651 E0.33672
G1 X13.492 Y109.651 E0.02365
G1 X13.492 Y99.082 E0.33140
G1 X14.246 Y99.082 E0.02365
G1 X14.246 Y109.651 E0.33140
G1 X14.346 Y109.651 E0.00315
G1 X14.346 Y111.967 E0.07260
G1 X15.000 Y111.967 E0.02049
G1 X15.000 Y99.082 E0.40401
G1 X15.754 Y99.082 E0.02365
G1 X15.754 Y111.967 E0.40401
G1 X16.508 Y111.967 E0.02365
G1 X16.508 Y99.082 E0.40401
G1 X16.662 Y99.082 E0.00482
G1 X16.662 Y96.766 E0.07260
G1 X17.262 Y96.766 E0.01883
G1 X17.262 Y111.967 E0.47661
G1 X18.017 Y111.967 E0.02365
G1 X18.017 Y96.766 E0.47661
G1 X18.771 Y96.766 E0.02365
G1 X18.771 Y111.967 E0.47661
G1 X18.978 Y111.967 E0.00649
G1 X18.978 Y114.283 E0.07260
G1 X19.525 Y114.283 E0.01716
G1 X19.525 Y96.766 E0.54922
G1 X20.279 Y96.766 E0.02365
G1 X20.279 Y114.283 E0.54922
G1 X21.033 Y114.283 E0.02365
G1 X21.033 Y96.766 E0.54922
G1 X21.293 Y96.766 E0.00815
G1 X21.293 Y94.450 E0.07260
G1 X21.787 Y94.450 E0.01549
G1 X21.787 Y114.283 E0.62182
G1 X22.542 Y114.283 E0.02365
G1 X22.542 Y94.450 E0.62182
G1 X23.296 Y94.450 E0.02365
G1 X23.296 Y114.283 E0.62182
G1 X23.609 Y114.283 E0.00982
G1 X23.609 Y116.598 E0.07260
G1 X24.050 Y116.598 E0.01383
G1 X24.050 Y94.450 E0.69443
G1 X24.804 Y94.450 E0.02365
G1 X24.804 Y116.598 E0.69443
G1 X25.558 Y116.598 E0.02365
G1 X25.558 Y94.450 E0.69443
G1 X25.925 Y94.450 E0.01148
G1 X25.925 Y92.135 E0.07260
G1 X26.312 Y92.135 E0.01216
G1 X26.312 Y116.598 E0.76703
G1 X27.067 Y116.598 E0.02365
G1 X27.067 Y92.135 E0.76703
G1 X27.821 Y92.135 E0.02365
G1 X27.821 Y116.598 E0.76703
G1 X28.240 Y116.598 E0.01315
G1 X28.240 Y118.914 E0.07260
G1 X28.575 Y118.914 E0.01050
G1 X28.575 Y92.135 E0.83964
M73 Q0 S349
M73 P0 R344
G1 X29.329 Y92.135 E0.02365
G1 X29.329 Y118.914 E0.83964
G1 X30.083 Y118.914 E0.02365
G1 X30.083 Y92.135 E0.83964
G1 X30.556 Y92.135 E0.01482
G1 X30.556 Y89.819 E0.07260
G1 X30.837 Y89.819 E0.00883
G1 X30.837 Y118.914 E0.91224
G1 X31.591 Y118.914 E0.02365
G1 X31.591 Y89.819 E0.91224
G1 X32.346 Y89.819 E0.02365
G1 X32.346 Y118.914 E0.91224
G1 X32.871 Y118.914 E0.01648
G1 X32.871 Y121.229 E0.07260
G1 X33.100 Y121.229 E0.00716
G1 X33.100 Y89.819 E0.98484
G1 X33.854 Y89.819 E0.02365
G1 X33.854 Y121.229 E0.98484
G1 X34.608 Y121.229 E0.02365
G1 X34.608 Y89.819 E0.98484
G1 X35.187 Y89.819 E0.01815
G1 X35.187 Y87.504 E0.07260
G1 X35.362 Y87.504 E0.00550
G1 X35.362 Y121.229 E1.05745
G1 X36.116 Y121.229 E0.02365
G1 X36.116 Y87.504 E1.05745
G1 X36.871 Y87.504 E0.02365
G1 X36.871 Y121.229 E1.05745
G1 X37.503 Y121.229 E0.01982
G1 X37.503 Y123.545 E0.07260
G1 X37.625 Y123.545 E0.00383
G1 X37.625 Y87.504 E1.13005
G1 X38.379 Y87.504 E0.02365
G1 X38.379 Y123.545 E1.13005
G1 X39.133 Y123.545 E0.02365
G1 X39.133 Y87.504 E1.13005
G1 X39.818 Y87.504 E0.02148
G1 X39.818 Y85.188 E0.07260
G1 X39.887 Y85.188 E0.00216
G1 X39.887 Y123.545 E1.20266
G1 X40.641 Y123.545 E0.02365
G1 X40.641 Y85.188 E1.20266
G1 X41.396 Y85.188 E0.02365
G1 X41.396 Y123.545 E1.20266
G1 X42.134 Y123.545 E0.02315
G1 X42.134 Y125.861 E0.07260
G1 X42.150 Y125.861 E0.00050
G1 X42.150 Y85.188 E1.27526
G1 X42.904 Y85.188 E0.02365
G1 X42.904 Y125.861 E1.27526
G1 X43.658 Y125.861 E0.02365
G1 X43.658 Y85.188 E1.27526
G1 X44.412 Y85.188 E0.02365
G1 X44.412 Y125.861 E1.27526
G1 X45.166 Y125.861 E0.02365
G1 X45.166 Y82.872 E1.34787
G1 X45.921 Y82.872 E0.02365
G1 X45.921 Y125.861 E1.34787
G1 X46.675 Y125.861 E0.02365
G1 X46.675 Y82.872 E1.34787
G1 X47.429 Y82.872 E0.02365
G1 X47.429 Y128.176 E1.42047
G1 X48.183 Y128.176 E0.02365
G1 X48.183 Y82.872 E1.42047
G1 X48.937 Y82.872 E0.02365
G1 X48.937 Y128.176 E1.42047
G1 X49.691 Y128.176 E0.02365
G1 X49.691 Y80.557 E1.49308
G1 X50.445 Y80.557 E0.02365
G1 X50.445 Y128.346 E1.49840
G1 F8640
G1 X50.445 Y125.055 E-0.76000
G1 E-0.04000 F2100.00000
G1 Z0.800 F10800.000
G1 X54.187 Y125.349
G1 Z0.200
G1 E0.80000 F2100.00000
G1 F1200
G1 X54.187 Y125.107 E0.00678
G1 X53.979 Y125.003 E0.00652
G1 X53.842 Y124.782 E0.00729
G1 X53.842 Y85.220 E1.10886
G1 X53.979 Y84.999 E0.00729
G1 X54.187 Y84.895 E0.00652
G1 X54.187 Y83.526 E0.03836
G1 X53.671 Y83.526 E0.01445
G1 X53.671 Y125.207 E1.16825
M73 Q0 S348
M73 P0 R343
G1 X53.156 Y125.207 E0.01445
G1 X53.156 Y83.526 E1.16825
G1 X52.640 Y83.526 E0.01445
G1 X52.640 Y125.207 E1.16825
G1 X52.125 Y125.207 E0.01445
G1 X52.125 Y83.384 E1.17223
G1 X54.216 Y85.078 F10800.000
G1 F1200
G1 X54.216 Y124.924 E1.24937
G1 X57.233 Y128.346 F10800.000
G1 F1200
G1 X57.233 Y125.490 E0.08956
G1 X56.479 Y125.490 E0.02365
G1 X56.479 Y128.176 E0.08424
G1 X55.725 Y128.176 E0.02365
G1 X55.725 Y125.490 E0.08424
G1 X54.970 Y125.490 E0.02365
G1 X54.970 Y128.176 E0.08424
G1 X54.216 Y128.176 E0.02365
G1 X54.216 Y125.553 E0.08224
G1 X53.462 Y125.553 E0.02365
G1 X53.462 Y128.176 E0.08224
G1 X52.708 Y128.176 E0.02365
G1 X52.708 Y125.553 E0.08224
G1 X51.954 Y125.553 E0.02365
G1 X51.954 Y128.176 E0.08224
G1 X51.200 Y128.176 E0.02365
G1 X51.200 Y80.557 E1.49308
G1 X51.954 Y80.557 E0.02365
G1 X51.954 Y83.180 E0.08224
G1 X52.708 Y83.180 E0.02365
G1 X52.708 Y80.557 E0.08224
G1 X53.462 Y80.557 E0.02365
G1 X53.462 Y83.180 E0.08224
G1 X54.216 Y83.180 E0.02365
G1 X54.216 Y80.557 E0.08224
G1 X54.970 Y80.557 E0.02365
G1 X54.970 Y84.512 E0.12403
G1 X55.725 Y84.512 E0.02365
G1 X55.725 Y80.557 E0.12403
G1 X56.479 Y80.557 E0.02365
G1 X56.479 Y84.512 E0.12403
G1 X57.233 Y84.512 E0.02365
G1 X57.233 Y80.387 E0.12935
G1 F8640
G1 X57.233 Y83.678 E-0.76000
G1 E-0.04000 F2100.00000
G1 Z0.800 F10800.000
G1 X158.290 Y84.682
G1 Z0.200
G1 E0.80000 F2100.00000
G1 F1200
G1 X158.290 Y59.716 E0.78279
G1 X159.044 Y59.716 E0.02365
G1 X159.044 Y84.512 E0.77747
G1 X159.799 Y84.512 E0.02365
G1 X159.799 Y59.716 E0.77747
G1 X160.553 Y59.716 E0.02365
G1 X160.553 Y84.512 E0.77747
G1 X161.307 Y84.512 E0.02365
G1 X161.307 Y59.716 E0.77747
G1 X162.061 Y59.716 E0.02365
G1 X162.061 Y84.512 E0.77747
G1 X162.815 Y84.512 E0.02365
G1 X162.815 Y59.716 E0.77747
G1 X163.569 Y59.716 E0.02365
G1 X163.569 Y84.512 E0.77747
G1 X164.323 Y84.512 E0.02365
G1 X164.323 Y59.716 E0.77747
G1 X165.078 Y59.716 E0.02365
G1 X165.078 Y84.512 E0.77747
G1 X165.832 Y84.512 E0.02365
G1 X165.832 Y59.716 E0.77747
G1 X166.586 Y59.716 E0.02365
G1 X166.586 Y84.512 E0.77747
G1 X167.340 Y84.512 E0.02365
G1 X167.340 Y59.716 E0.77747
G1 X168.094 Y59.716 E0.02365
G1 X168.094 Y62.339 E0.08224
G1 X168.848 Y62.339 E0.02365
G1 X168.848 Y59.716 E0.08224
G1 X169.603 Y59.716 E0.02365
G1 X169.603 Y62.339 E0.08224
G1 X170.357 Y62.339 E0.02365
G1 X170.357 Y59.716 E0.08224
G1 X171.111 Y59.716 E0.02365
G1 X171.111 Y62.339 E0.08224
G1 X171.865 Y62.339 E0.02365
G1 X171.865 Y59.716 E0.08224
G1 X172.619 Y59.716 E0.02365
G1 X172.619 Y62.339 E0.08224
G1 X172.808 Y62.339 E0.00593
G1 X172.808 Y64.521 E0.06842
G1 X173.373 Y64.512 E0.01772
G1 X173.373 Y59.716 E0.15038
G1 X174.128 Y59.716 E0.02365
G1 X174.128 Y64.512 E0.15038
G1 X174.882 Y64.512 E0.02365
G1 X174.882 Y59.716 E0.15038
G1 X175.636 Y59.716 E0.02365
G1 X175.636 Y64.512 E0.15038
G1 X176.390 Y64.512 E0.02365
G1 X176.390 Y59.716 E0.15038
G1 X177.144 Y59.716 E0.02365
G1 X177.144 Y62.339 E0.08224
G1 X177.898 Y62.339 E0.02365
G1 X177.898 Y59.716 E0.08224
G1 X178.653 Y59.716 E0.02365
G1 X178.653 Y62.339 E0.08224
G1 X179.407 Y62.339 E0.02365
G1 X179.407 Y59.716 E0.08224
G1 X180.161 Y59.716 E0.02365
G1 X180.161 Y62.339 E0.08224
G1 X180.915 Y62.339 E0.02365
G1 X180.915 Y59.716 E0.08224
G1 X181.669 Y59.716 E0.02365
G1 X181.669 Y62.339 E0.08224
G1 X182.071 Y62.339 E0.01260
G1 X182.071 Y84.512 E0.69523
G1 X182.423 Y84.512 E0.01105
G1 X182.423 Y59.716 E0.77747
G1 X183.177 Y59.716 E0.02365
G1 X183.177 Y84.512 E0.77747
G1 X183.932 Y84.512 E0.02365
G1 X183.932 Y59.716 E0.77747
G1 X184.686 Y59.716 E0.02365
G1 X184.686 Y84.512 E0.77747
G1 X185.440 Y84.512 E0.02365
G1 X185.440 Y59.716 E0.77747
G1 X186.194 Y59.716 E0.02365
G1 X186.194 Y84.512 E0.77747
G1 X186.948 Y84.512 E0.02365
G1 X186.948 Y59.716 E0.77747
G1 X187.702 Y59.716 E0.02365
G1 X187.702 Y84.512 E0.77747
G1 X188.457 Y84.512 E0.02365
G1 X188.457 Y59.716 E0.77747
G1 X189.211 Y59.716 E0.02365
G1 X189.211 Y84.512 E0.77747
G1 X189.965 Y84.512 E0.02365
G1 X189.965 Y59.716 E0.77747
G1 X190.719 Y59.716 E0.02365
G1 X190.719 Y84.512 E0.77747
G1 X191.473 Y84.512 E0.02365
G1 X191.473 Y59.716 E0.77747
G1 X192.227 Y59.716 E0.02365
G1 X192.227 Y84.512 E0.77747
G1 X192.982 Y84.512 E0.02365
G1 X192.982 Y59.716 E0.77747
G1 X193.736 Y59.716 E0.02365
G1 X193.736 Y84.682 E0.78279
G1 F8640
G1 X193.736 Y81.391 E-0.76000
G1 E-0.04000 F2100.00000
G1 Z0.800 F10800.000
G1 X181.545 Y84.685
G1 Z0.200
G1 E0.80000 F2100.00000
G1 F1200
G1 X181.545 Y62.685 E0.61662
G1 X181.029 Y62.685 E0.01445
M73 Q0 S347
G1 X181.029 Y84.543 E0.61264
M73 P0 R342
G1 X180.514 Y84.543 E0.01445
G1 X180.514 Y62.685 E0.61264
G1 X179.998 Y62.685 E0.01445
G1 X179.998 Y84.543 E0.61264
G1 X179.482 Y84.543 E0.01445
G1 X179.482 Y62.685 E0.61264
G1 X178.967 Y62.685 E0.01445
G1 X178.967 Y64.644 E0.05491
G1 X178.866 Y64.543 E0.00401
G1 X178.451 Y64.543 E0.01161
G1 X178.451 Y62.685 E0.05207
G1 X177.936 Y62.685 E0.01445
G1 X177.936 Y64.543 E0.05207
G1 X177.420 Y64.543 E0.01445
G1 X177.420 Y62.543 E0.05605
G1 X177.898 Y67.682 F10800.000
G1 F1200
G1 X177.898 Y64.890 E0.08756
G1 X178.653 Y64.890 E0.02365
G1 X178.653 Y67.682 E0.08756
G1 F8640
G1 X178.653 Y64.890 E-0.64480
G1 X178.154 Y64.890 E-0.11520
G1 E-0.04000 F2100.00000
G1 Z0.800 F10800.000
G1 X171.865 Y67.682
G1 Z0.200
G1 E0.80000 F2100.00000
G1 F1200
G1 X171.865 Y64.720 E0.09288
G1 X172.264 Y64.685 F10800.000
G1 F1200
G1 X172.264 Y62.685 E0.05605
G1 X171.748 Y62.685 E0.01445
G1 X171.748 Y64.543 E0.05207
G1 X171.233 Y64.543 E0.01445
G1 X171.233 Y62.685 E0.05207
G1 X170.717 Y62.685 E0.01445
G1 X170.717 Y84.543 E0.61264
G1 X170.201 Y84.543 E0.01445
G1 X170.201 Y62.685 E0.61264
G1 X169.686 Y62.685 E0.01445
G1 X169.686 Y84.543 E0.61264
G1 X169.170 Y84.543 E0.01445
G1 X169.170 Y62.685 E0.61264
G1 X168.654 Y62.685 E0.01445
G1 X168.654 Y84.543 E0.61264
G1 X168.139 Y84.543 E0.01445
G1 X168.139 Y62.543 E0.61662
G1 F8640
G1 X168.139 Y65.835 E-0.76000
G1 E-0.04000 F2100.00000
G1 Z0.800 F10800.000
G1 X168.139 Y125.317
G1 Z0.200
G1 E0.80000 F2100.00000
G1 F1200
G1 X168.139 Y146.048 E0.58105
G1 X168.654 Y146.048 E0.01445
G1 X168.654 Y125.459 E0.57707
G1 X169.170 Y125.459 E0.01445
G1 X169.170 Y146.048 E0.57707
G1 X169.686 Y146.048 E0.01445
G1 X169.686 Y125.459 E0.57707
G1 X170.201 Y125.459 E0.01445
G1 X170.201 Y146.048 E0.57707
G1 X170.717 Y146.048 E0.01445
G1 X170.717 Y125.459 E0.57707
G1 X170.864 Y125.459 E0.00413
G1 X170.864 Y145.189 E0.55299
G1 X171.132 Y145.457 E0.01063
G1 X171.233 Y145.457 E0.00281
G1 X171.233 Y146.048 E0.01656
G1 X171.748 Y146.048 E0.01445
G1 X171.748 Y145.457 E0.01656
G1 X172.264 Y145.457 E0.01445
G1 X172.264 Y146.190 E0.02054
G1 X171.865 Y145.280 F10800.000
G1 F1200
G1 X171.865 Y142.318 E0.09288
G1 F8640
G1 X171.865 Y145.280 E-0.68398
G1 E-0.11602 F2100.00000
G1 Z0.800 F10800.000
G1 X177.420 Y145.315
G1 Z0.200
G1 E0.80000 F2100.00000
G1 F1200
G1 X177.420 Y146.048 E0.02054
G1 X177.936 Y146.048 E0.01445
G1 X177.936 Y145.457 E0.01656
G1 X178.451 Y145.457 E0.01445
G1 X178.451 Y146.048 E0.01656
G1 X178.967 Y146.048 E0.01445
G1 X178.967 Y145.356 E0.01940
G1 X179.134 Y145.189 E0.00662
G1 X179.134 Y125.459 E0.55299
G1 X179.482 Y125.459 E0.00977
G1 X179.482 Y146.048 E0.57707
G1 X179.998 Y146.048 E0.01445
G1 X179.998 Y125.459 E0.57707
G1 X180.514 Y125.459 E0.01445
G1 X180.514 Y146.048 E0.57707
G1 X181.029 Y146.048 E0.01445
G1 X181.029 Y125.459 E0.57707
G1 X181.545 Y125.459 E0.01445
G1 X181.545 Y146.190 E0.58105
G1 X178.652 Y145.280 F10800.000
G1 F1200
G1 X178.652 Y142.488 E0.08756
G1 X177.898 Y142.488 E0.02365
G1 X177.898 Y145.280 E0.08756
G1 X193.736 Y149.187 F10800.000
G1 F1200
G1 X193.736 Y125.490 E0.74300
G1 X192.982 Y125.490 E0.02365
G1 X192.982 Y149.017 E0.73768
G1 X192.227 Y149.017 E0.02365
G1 X192.227 Y125.490 E0.73768
G1 X191.473 Y125.490 E0.02365
G1 X191.473 Y149.017 E0.73768
G1 X190.719 Y149.017 E0.02365
G1 X190.719 Y125.490 E0.73768
G1 X189.965 Y125.490 E0.02365
G1 X189.965 Y149.017 E0.73768
G1 X189.211 Y149.017 E0.02365
G1 X189.211 Y125.490 E0.73768
G1 X188.457 Y125.490 E0.02365
G1 X188.457 Y149.017 E0.73768
G1 X187.702 Y149.017 E0.02365
G1 X187.702 Y125.490 E0.73768
G1 X186.948 Y125.490 E0.02365
G1 X186.948 Y149.017 E0.73768
G1 X186.194 Y149.017 E0.02365
G1 X186.194 Y125.490 E0.73768
G1 X185.440 Y125.490 E0.02365
G1 X185.440 Y149.017 E0.73768
G1 X184.686 Y149.017 E0.02365
G1 X184.686 Y125.490 E0.73768
G1 X183.932 Y125.490 E0.02365
G1 X183.932 Y149.017 E0.73768
G1 X183.177 Y149.017 E0.02365
G1 X183.177 Y125.490 E0.73768
G1 X182.423 Y125.490 E0.02365
G1 X182.423 Y149.017 E0.73768
G1 X181.669 Y149.017 E0.02365
G1 X181.669 Y146.394 E0.08224
G1 X180.915 Y146.394 E0.02365
G1 X180.915 Y149.017 E0.08224
G1 X180.161 Y149.017 E0.02365
G1 X180.161 Y146.394 E0.08224
G1 X179.407 Y146.394 E0.02365
G1 X179.407 Y149.017 E0.08224
G1 X178.652 Y149.017 E0.02365
G1 X178.652 Y146.394 E0.08224
G1 X177.898 Y146.394 E0.02365
G1 X177.898 Y149.017 E0.08224
G1 X177.144 Y149.017 E0.02365
G1 X177.144 Y146.394 E0.08224
G1 X176.747 Y146.394 E0.01245
G1 X176.747 Y145.488 E0.02842
G1 X176.390 Y145.488 E0.01119
G1 X176.390 Y149.017 E0.11066
G1 X175.636 Y149.017 E0.02365
G1 X175.636 Y145.488 E0.11066
G1 X174.882 Y145.488 E0.02365
G1 X174.882 Y149.017 E0.11066
