; generated by PrusaSlicer 2.1.0+win64 on 2020-04-29 at 09:04:55 UTC

; 

; external perimeters extrusion width = 0.60mm
; perimeters extrusion width = 0.50mm
; infill extrusion width = 0.50mm
; solid infill extrusion width = 0.50mm
; top infill extrusion width = 0.45mm
; support material extrusion width = 0.38mm
; first layer extrusion width = 0.42mm

M73 P0 R293
M73 Q0 S298
M201 X1000 Y1000 Z1000 E5000 ; sets maximum accelerations, mm/sec^2
M203 X200 Y200 Z12 E120 ; sets maximum feedrates, mm/sec
M204 P1250 R1250 T1250 ; sets acceleration (P, T) and retract acceleration (R), mm/sec^2
M205 X8.00 Y8.00 Z0.40 E1.50 ; sets the jerk limits, mm/sec
M205 S0 T0 ; sets the minimum extruding and travel feed rate, mm/sec
M107
M862.3 P "MK3SMMU2S" ; printer model check
M862.1 P0.4 ; nozzle diameter check
M115 U3.8.1 ; tell printer latest fw version
G90 ; use absolute coordinates
M83 ; extruder relative mode
M104 S215 ; set extruder temp
M140 S60 ; set bed temp
Tx
M190 S60 ; wait for bed temp
M109 S215 ; wait for extruder temp
G28 W ; home all without mesh bed level
G80 ; mesh bed leveling

G21 ; set units to millimeters

;go outside print area
G1 Y-3.0 F1000.0
G1 Z0.4 F1000.0
; select extruder
Tc
; purge line
G1 X55.0 F2000.0
G1 Z0.3 F1000.0
G92 E0.0
G1 X240.0 E25.0 F2200.0
M73 Q0 S298
M73 P0 R293
G1 Y-2.0 F1000.0
G1 X55.0 E25 F1400.0
G1 Z0.20 F1000.0
G1 X5.0 E4.0 F1000.0

M221 S95
G92 E0.0
G21 ; set units to millimeters
G90 ; use absolute coordinates
M83 ; use relative distances for extrusion
M900 K30 ; Filament gcode
;BEFORE_LAYER_CHANGE
G92 E0.0
;0.2


G1 E-0.80000 F2100.00000
G1 Z0.600 F10800.000
;AFTER_LAYER_CHANGE
;0.2
G1 X10.627 Y110.134
G1 Z0.200
G1 E0.80000 F2100.00000
M204 S1000
G1 F1200
G1 X10.549 Y109.568 E0.01794
G1 X10.555 Y98.658 E0.34206
G1 X10.650 Y98.157 E0.01601
G1 X10.860 Y97.691 E0.01601
G1 X11.171 Y97.286 E0.01601
G1 X11.568 Y96.965 E0.01601
G1 X15.673 Y94.717 E0.14677
G1 X38.882 Y83.113 E0.81358
G1 X48.788 Y78.466 E0.34307
G1 X90.181 Y59.825 E1.42339
G1 X90.759 Y59.746 E0.01828
G1 X193.736 Y59.746 E3.22876
G1 X194.282 Y59.815 E0.01726
G1 X194.796 Y60.021 E0.01737
G1 X236.005 Y83.207 E1.48254
G1 X236.452 Y83.553 E0.01771
G1 X236.795 Y84.001 E0.01771
G1 X237.012 Y84.523 E0.01771
G1 X237.088 Y85.082 E0.01771
G1 X237.088 Y125.114 E1.25517
G1 X236.996 Y125.727 E0.01942
G1 X236.737 Y126.285 E0.01930
G1 X236.412 Y126.679 E0.01601
G1 X236.007 Y126.984 E0.01589
G1 X194.835 Y150.982 E1.49422
G1 X194.317 Y151.199 E0.01760
G1 X193.739 Y151.278 E0.01828
G1 X98.708 Y151.278 E2.97964
G1 X90.693 Y151.056 E0.25139
G1 X90.238 Y150.900 E0.01510
G1 X41.183 Y127.735 E1.70096
G1 X13.351 Y113.819 E0.97563
G1 X12.930 Y113.538 E0.01589
G1 X12.586 Y113.170 E0.01578
G1 X10.900 Y110.742 E0.09269
G1 X10.652 Y110.189 E0.01901
G1 F8640
G1 X10.549 Y109.568 E-0.14547
G1 X10.550 Y106.906 E-0.61453
G1 E-0.04000 F2100.00000
G1 Z0.800 F10800.000
G1 X12.738 Y98.815
G1 Z0.200
G1 E0.80000 F2100.00000
G1 F1200
G1 X12.738 Y109.554 E0.33672
G1 X13.492 Y109.554 E0.02365
G1 X13.492 Y98.985 E0.33140
G1 X14.246 Y98.985 E0.02365
G1 X14.246 Y109.554 E0.33140
G1 X14.346 Y109.554 E0.00315
G1 X14.346 Y111.870 E0.07260
G1 X15.000 Y111.870 E0.02049
G1 X15.000 Y98.985 E0.40401
G1 X15.754 Y98.985 E0.02365
G1 X15.754 Y111.870 E0.40401
G1 X16.508 Y111.870 E0.02365
G1 X16.508 Y98.985 E0.40401
G1 X16.662 Y98.985 E0.00482
G1 X16.662 Y96.669 E0.07260
G1 X17.262 Y96.669 E0.01883
G1 X17.262 Y111.870 E0.47661
G1 X18.017 Y111.870 E0.02365
G1 X18.017 Y96.669 E0.47661
G1 X18.771 Y96.669 E0.02365
G1 X18.771 Y111.870 E0.47661
G1 X18.978 Y111.870 E0.00649
G1 X18.978 Y114.186 E0.07260
G1 X19.525 Y114.186 E0.01716
G1 X19.525 Y96.669 E0.54922
G1 X20.279 Y96.669 E0.02365
G1 X20.279 Y114.186 E0.54922
G1 X21.033 Y114.186 E0.02365
G1 X21.033 Y96.669 E0.54922
G1 X21.293 Y96.669 E0.00815
G1 X21.293 Y94.353 E0.07260
G1 X21.787 Y94.353 E0.01549
G1 X21.787 Y114.186 E0.62182
G1 X22.542 Y114.186 E0.02365
G1 X22.542 Y94.353 E0.62182
G1 X23.296 Y94.353 E0.02365
G1 X23.296 Y114.186 E0.62182
G1 X23.609 Y114.186 E0.00982
G1 X23.609 Y116.501 E0.07260
G1 X24.050 Y116.501 E0.01383
G1 X24.050 Y94.353 E0.69443
G1 X24.804 Y94.353 E0.02365
G1 X24.804 Y116.501 E0.69443
G1 X25.558 Y116.501 E0.02365
G1 X25.558 Y94.353 E0.69443
G1 X25.925 Y94.353 E0.01148
G1 X25.925 Y92.038 E0.07260
G1 X26.312 Y92.038 E0.01216
G1 X26.312 Y116.501 E0.76703
G1 X27.067 Y116.501 E0.02365
G1 X27.067 Y92.038 E0.76703
G1 X27.821 Y92.038 E0.02365
G1 X27.821 Y116.501 E0.76703
M73 Q0 S297
G1 X28.240 Y116.501 E0.01315
G1 X28.240 Y118.817 E0.07260
G1 X28.575 Y118.817 E0.01050
G1 X28.575 Y92.038 E0.83964
M73 P0 R292
G1 X29.329 Y92.038 E0.02365
G1 X29.329 Y118.817 E0.83964
G1 X30.083 Y118.817 E0.02365
G1 X30.083 Y92.038 E0.83964
G1 X30.556 Y92.038 E0.01482
G1 X30.556 Y89.722 E0.07260
G1 X30.837 Y89.722 E0.00883
G1 X30.837 Y118.817 E0.91224
G1 X31.591 Y118.817 E0.02365
G1 X31.591 Y89.722 E0.91224
G1 X32.346 Y89.722 E0.02365
G1 X32.346 Y118.817 E0.91224
G1 X32.871 Y118.817 E0.01648
G1 X32.871 Y121.132 E0.07260
G1 X33.100 Y121.132 E0.00716
G1 X33.100 Y89.722 E0.98484
G1 X33.854 Y89.722 E0.02365
G1 X33.854 Y121.132 E0.98484
G1 X34.608 Y121.132 E0.02365
G1 X34.608 Y89.722 E0.98484
G1 X35.187 Y89.722 E0.01815
G1 X35.187 Y87.407 E0.07260
G1 X35.362 Y87.407 E0.00550
G1 X35.362 Y121.132 E1.05745
G1 X36.116 Y121.132 E0.02365
G1 X36.116 Y87.407 E1.05745
G1 X36.871 Y87.407 E0.02365
G1 X36.871 Y121.132 E1.05745
G1 X37.503 Y121.132 E0.01982
G1 X37.503 Y123.448 E0.07260
G1 X37.625 Y123.448 E0.00383
G1 X37.625 Y87.407 E1.13005
G1 X38.379 Y87.407 E0.02365
G1 X38.379 Y123.448 E1.13005
G1 X39.133 Y123.448 E0.02365
G1 X39.133 Y87.407 E1.13005
G1 X39.818 Y87.407 E0.02148
G1 X39.818 Y85.091 E0.07260
G1 X39.887 Y85.091 E0.00216
G1 X39.887 Y123.448 E1.20266
G1 X40.641 Y123.448 E0.02365
G1 X40.641 Y85.091 E1.20266
G1 X41.396 Y85.091 E0.02365
G1 X41.396 Y123.448 E1.20266
G1 X42.134 Y123.448 E0.02315
G1 X42.134 Y125.764 E0.07260
G1 X42.150 Y125.764 E0.00050
G1 X42.150 Y85.091 E1.27526
G1 X42.904 Y85.091 E0.02365
G1 X42.904 Y125.764 E1.27526
G1 X43.658 Y125.764 E0.02365
G1 X43.658 Y85.091 E1.27526
G1 X44.412 Y85.091 E0.02365
G1 X44.412 Y125.764 E1.27526
G1 X45.166 Y125.764 E0.02365
G1 X45.166 Y82.775 E1.34787
G1 X45.921 Y82.775 E0.02365
G1 X45.921 Y125.764 E1.34787
G1 X46.675 Y125.764 E0.02365
G1 X46.675 Y82.775 E1.34787
G1 X47.429 Y82.775 E0.02365
G1 X47.429 Y128.079 E1.42047
G1 X48.183 Y128.079 E0.02365
G1 X48.183 Y82.775 E1.42047
G1 X48.937 Y82.775 E0.02365
G1 X48.937 Y128.079 E1.42047
G1 X49.691 Y128.079 E0.02365
G1 X49.691 Y80.460 E1.49308
G1 X50.445 Y80.460 E0.02365
G1 X50.445 Y128.249 E1.49840
G1 X54.216 Y125.018 F10800.000
G1 F1200
G1 X54.216 Y85.174 E1.24931
M73 Q0 S296
G1 X54.187 Y85.149 F10800.000
G1 F1200
G1 X54.187 Y83.429 E0.04822
G1 X53.671 Y83.429 E0.01445
G1 X53.671 Y125.110 E1.16825
M73 P0 R291
G1 X53.156 Y125.110 E0.01445
G1 X53.156 Y83.429 E1.16825
G1 X52.640 Y83.429 E0.01445
G1 X52.640 Y125.110 E1.16825
G1 X52.125 Y125.110 E0.01445
G1 X52.125 Y83.287 E1.17223
G1 X57.233 Y80.290 F10800.000
G1 F1200
G1 X57.233 Y84.607 E0.13537
G1 X56.479 Y84.607 E0.02365
G1 X56.479 Y80.460 E0.13005
G1 X55.725 Y80.460 E0.02365
G1 X55.725 Y84.607 E0.13005
G1 X54.970 Y84.607 E0.02365
G1 X54.970 Y80.460 E0.13005
G1 X54.216 Y80.460 E0.02365
G1 X54.216 Y83.083 E0.08224
G1 X53.462 Y83.083 E0.02365
G1 X53.462 Y80.460 E0.08224
G1 X52.708 Y80.460 E0.02365
G1 X52.708 Y83.083 E0.08224
G1 X51.954 Y83.083 E0.02365
G1 X51.954 Y80.460 E0.08224
G1 X51.200 Y80.460 E0.02365
G1 X51.200 Y128.079 E1.49308
G1 X51.954 Y128.079 E0.02365
G1 X51.954 Y125.456 E0.08224
G1 X52.708 Y125.456 E0.02365
G1 X52.708 Y128.079 E0.08224
G1 X53.462 Y128.079 E0.02365
G1 X53.462 Y125.456 E0.08224
G1 X54.216 Y125.456 E0.02365
G1 X54.216 Y128.079 E0.08224
G1 X54.970 Y128.079 E0.02365
G1 X54.970 Y125.585 E0.07822
G1 X55.725 Y125.585 E0.02365
G1 X55.725 Y128.079 E0.07822
G1 X56.479 Y128.079 E0.02365
G1 X56.479 Y125.585 E0.07822
G1 X57.233 Y125.585 E0.02365
G1 X57.233 Y128.249 E0.08354
G1 F8640
G1 X57.233 Y125.585 E-0.61522
G1 X56.606 Y125.585 E-0.14478
G1 E-0.04000 F2100.00000
G1 Z0.800 F10800.000
G1 X91.170 Y125.415
G1 Z0.200
G1 E0.80000 F2100.00000
G1 F1200
G1 X91.170 Y148.920 E0.73698
G1 X91.924 Y148.920 E0.02365
G1 X91.924 Y125.585 E0.73166
G1 X92.678 Y125.585 E0.02365
G1 X92.678 Y148.920 E0.73166
G1 X93.433 Y148.920 E0.02365
G1 X93.433 Y125.585 E0.73166
G1 X94.187 Y125.585 E0.02365
G1 X94.187 Y148.920 E0.73166
G1 X94.941 Y148.920 E0.02365
G1 X94.941 Y125.585 E0.73166
G1 X95.695 Y125.585 E0.02365
G1 X95.695 Y148.920 E0.73166
G1 X96.449 Y148.920 E0.02365
G1 X96.449 Y125.585 E0.73166
G1 X97.203 Y125.585 E0.02365
G1 X97.203 Y148.920 E0.73166
G1 X97.957 Y148.920 E0.02365
G1 X97.957 Y125.585 E0.73166
G1 X98.712 Y125.585 E0.02365
G1 X98.712 Y149.090 E0.73698
G1 F8640
G1 X98.712 Y145.798 E-0.76000
G1 E-0.04000 F2100.00000
G1 Z0.800 F10800.000
G1 X158.290 Y149.090
G1 Z0.200
G1 E0.80000 F2100.00000
G1 F1200
G1 X158.290 Y125.585 E0.73698
G1 X159.044 Y125.585 E0.02365
G1 X159.044 Y148.920 E0.73166
G1 X159.799 Y148.920 E0.02365
G1 X159.799 Y125.585 E0.73166
G1 X160.553 Y125.585 E0.02365
G1 X160.553 Y148.920 E0.73166
G1 X161.307 Y148.920 E0.02365
G1 X161.307 Y125.585 E0.73166
G1 X162.061 Y125.585 E0.02365
G1 X162.061 Y148.920 E0.73166
G1 X162.815 Y148.920 E0.02365
G1 X162.815 Y125.585 E0.73166
G1 X163.569 Y125.585 E0.02365
G1 X163.569 Y148.920 E0.73166
G1 X164.323 Y148.920 E0.02365
G1 X164.323 Y125.585 E0.73166
G1 X165.078 Y125.585 E0.02365
G1 X165.078 Y148.920 E0.73166
G1 X165.832 Y148.920 E0.02365
G1 X165.832 Y125.585 E0.73166
G1 X166.586 Y125.585 E0.02365
G1 X166.586 Y148.920 E0.73166
G1 X167.340 Y148.920 E0.02365
G1 X167.340 Y125.585 E0.73166
G1 X167.484 Y125.585 E0.00453
G1 X167.484 Y146.297 E0.64943
G1 X168.094 Y146.297 E0.01912
G1 X168.094 Y148.920 E0.08224
G1 X168.848 Y148.920 E0.02365
G1 X168.848 Y146.297 E0.08224
G1 X169.603 Y146.297 E0.02365
G1 X169.603 Y148.920 E0.08224
G1 X170.357 Y148.920 E0.02365
G1 X170.357 Y146.297 E0.08224
G1 X171.111 Y146.297 E0.02365
G1 X171.111 Y148.920 E0.08224
G1 X171.865 Y148.920 E0.02365
G1 X171.865 Y146.297 E0.08224
G1 X172.619 Y146.297 E0.02365
G1 X172.619 Y148.920 E0.08224
G1 X173.373 Y148.920 E0.02365
G1 X173.373 Y145.585 E0.10458
G1 X174.128 Y145.585 E0.02365
G1 X174.128 Y148.920 E0.10458
G1 X174.882 Y148.920 E0.02365
G1 X174.882 Y145.585 E0.10458
G1 X175.636 Y145.585 E0.02365
G1 X175.636 Y148.920 E0.10458
G1 X176.390 Y148.920 E0.02365
G1 X176.390 Y145.585 E0.10458
G1 X176.747 Y145.585 E0.01119
G1 X176.747 Y146.297 E0.02234
G1 X177.144 Y146.297 E0.01245
G1 X177.144 Y148.920 E0.08224
G1 X177.898 Y148.920 E0.02365
G1 X177.898 Y146.297 E0.08224
G1 X178.652 Y146.297 E0.02365
G1 X178.652 Y148.920 E0.08224
G1 X179.407 Y148.920 E0.02365
G1 X179.407 Y146.297 E0.08224
G1 X180.161 Y146.297 E0.02365
G1 X180.161 Y148.920 E0.08224
G1 X180.915 Y148.920 E0.02365
G1 X180.915 Y146.297 E0.08224
G1 X181.669 Y146.297 E0.02365
G1 X181.669 Y148.920 E0.08224
G1 X182.423 Y148.920 E0.02365
G1 X182.423 Y125.585 E0.73166
G1 X183.177 Y125.585 E0.02365
G1 X183.177 Y148.920 E0.73166
G1 X183.932 Y148.920 E0.02365
G1 X183.932 Y125.585 E0.73166
G1 X184.686 Y125.585 E0.02365
G1 X184.686 Y148.920 E0.73166
G1 X185.440 Y148.920 E0.02365
G1 X185.440 Y125.585 E0.73166
G1 X186.194 Y125.585 E0.02365
G1 X186.194 Y148.920 E0.73166
G1 X186.948 Y148.920 E0.02365
G1 X186.948 Y125.585 E0.73166
G1 X187.702 Y125.585 E0.02365
G1 X187.702 Y148.920 E0.73166
G1 X188.457 Y148.920 E0.02365
G1 X188.457 Y125.585 E0.73166
M73 Q1 S295
G1 X189.211 Y125.585 E0.02365
G1 X189.211 Y148.920 E0.73166
G1 X189.965 Y148.920 E0.02365
G1 X189.965 Y125.585 E0.73166
M73 P1 R290
G1 X190.719 Y125.585 E0.02365
G1 X190.719 Y148.920 E0.73166
G1 X191.473 Y148.920 E0.02365
G1 X191.473 Y125.585 E0.73166
G1 X192.227 Y125.585 E0.02365
G1 X192.227 Y148.920 E0.73166
G1 X192.982 Y148.920 E0.02365
G1 X192.982 Y125.585 E0.73166
G1 X193.736 Y125.585 E0.02365
G1 X193.736 Y149.090 E0.73698
G1 F8640
G1 X193.736 Y145.798 E-0.76000
G1 E-0.04000 F2100.00000
G1 Z0.800 F10800.000
G1 X181.545 Y146.093
G1 Z0.200
G1 E0.80000 F2100.00000
G1 F1200
G1 X181.545 Y125.554 E0.57567
G1 X181.029 Y125.554 E0.01445
G1 X181.029 Y145.951 E0.57169
G1 X180.514 Y145.951 E0.01445
G1 X180.514 Y125.554 E0.57169
G1 X179.998 Y125.554 E0.01445
G1 X179.998 Y145.951 E0.57169
G1 X179.482 Y145.951 E0.01445
G1 X179.482 Y125.554 E0.57169
G1 X179.131 Y125.554 E0.00986
G1 X179.131 Y145.286 E0.55305
G1 X178.967 Y145.449 E0.00649
G1 X178.967 Y145.951 E0.01405
G1 X178.451 Y145.951 E0.01445
G1 X178.451 Y145.554 E0.01112
G1 X177.936 Y145.554 E0.01445
G1 X177.936 Y145.951 E0.01112
G1 X177.420 Y145.951 E0.01445
G1 X177.420 Y145.412 E0.01510
G1 X177.898 Y145.377 F10800.000
G1 F1200
G1 X177.898 Y142.585 E0.08756
G1 X178.652 Y142.585 E0.02365
G1 X178.652 Y145.377 E0.08756
G1 F8640
G1 X178.652 Y142.585 E-0.64480
G1 X178.154 Y142.585 E-0.11520
G1 E-0.04000 F2100.00000
G1 Z0.800 F10800.000
G1 X172.264 Y146.093
G1 Z0.200
G1 E0.80000 F2100.00000
G1 F1200
G1 X172.264 Y145.554 E0.01510
G1 X171.748 Y145.554 E0.01445
G1 X171.748 Y145.951 E0.01112
G1 X171.233 Y145.951 E0.01445
G1 X171.233 Y145.554 E0.01112
G1 X171.138 Y145.554 E0.00266
G1 X170.869 Y145.286 E0.01063
G1 X170.869 Y125.554 E0.55305
G1 X170.717 Y125.554 E0.00428
G1 X170.717 Y145.951 E0.57169
G1 X170.201 Y145.951 E0.01445
G1 X170.201 Y125.554 E0.57169
G1 X169.686 Y125.554 E0.01445
G1 X169.686 Y145.951 E0.57169
G1 X169.170 Y145.951 E0.01445
G1 X169.170 Y125.554 E0.57169
G1 X168.654 Y125.554 E0.01445
G1 X168.654 Y145.951 E0.57169
G1 X168.139 Y145.951 E0.01445
G1 X168.139 Y125.412 E0.57567
G1 F8640
G1 X168.139 Y128.703 E-0.76000
G1 E-0.04000 F2100.00000
G1 Z0.800 F10800.000
G1 X171.865 Y142.415
G1 Z0.200
G1 E0.80000 F2100.00000
G1 F1200
G1 X171.865 Y145.377 E0.09288
G1 F8640
G1 X171.865 Y142.415 E-0.68398
G1 E-0.11602 F2100.00000
G1 Z0.800 F10800.000
G1 X170.717 Y84.780
G1 Z0.200
G1 E0.80000 F2100.00000
G1 F1200
G1 X170.717 Y64.904 E0.55710
G1 X170.201 Y64.904 E0.01445
G1 X170.201 Y84.638 E0.55312
G1 X169.686 Y84.638 E0.01445
G1 X169.686 Y64.904 E0.55312
G1 X169.170 Y64.904 E0.01445
G1 X169.170 Y84.638 E0.55312
G1 X168.654 Y84.638 E0.01445
G1 X168.654 Y64.904 E0.55312
G1 X168.139 Y64.904 E0.01445
G1 X168.139 Y84.780 E0.55710
G1 X158.290 Y84.777 F10800.000
G1 F1200
G1 X158.290 Y61.935 E0.71621
G1 X159.044 Y61.935 E0.02365
G1 X159.044 Y84.607 E0.71089
G1 X159.799 Y84.607 E0.02365
G1 X159.799 Y61.935 E0.71089
G1 X160.553 Y61.935 E0.02365
G1 X160.553 Y84.607 E0.71089
G1 X161.307 Y84.607 E0.02365
G1 X161.307 Y61.935 E0.71089
G1 X162.061 Y61.935 E0.02365
G1 X162.061 Y84.607 E0.71089
G1 X162.815 Y84.607 E0.02365
G1 X162.815 Y61.935 E0.71089
G1 X163.569 Y61.935 E0.02365
G1 X163.569 Y84.607 E0.71089
G1 X164.323 Y84.607 E0.02365
G1 X164.323 Y61.935 E0.71089
G1 X165.078 Y61.935 E0.02365
G1 X165.078 Y84.607 E0.71089
G1 X165.832 Y84.607 E0.02365
G1 X165.832 Y61.935 E0.71089
G1 X166.586 Y61.935 E0.02365
G1 X166.586 Y84.607 E0.71089
G1 X167.340 Y84.607 E0.02365
G1 X167.340 Y61.935 E0.71089
G1 X168.094 Y61.935 E0.02365
G1 X168.094 Y64.558 E0.08224
G1 X168.848 Y64.558 E0.02365
G1 X168.848 Y61.935 E0.08224
G1 X169.603 Y61.935 E0.02365
G1 X169.603 Y64.558 E0.08224
G1 X170.357 Y64.558 E0.02365
G1 X170.357 Y61.935 E0.08224
G1 X171.111 Y61.935 E0.02365
G1 X171.111 Y64.558 E0.08224
G1 X171.865 Y64.558 E0.02365
G1 X171.865 Y61.935 E0.08224
G1 X172.619 Y61.935 E0.02365
G1 X172.619 Y64.558 E0.08224
G1 X172.808 Y64.558 E0.00593
G1 X172.808 Y64.610 E0.00163
G1 X173.373 Y64.607 E0.01771
G1 X173.373 Y61.935 E0.08380
G1 X174.128 Y61.935 E0.02365
G1 X174.128 Y64.607 E0.08380
G1 X174.882 Y64.607 E0.02365
G1 X174.882 Y61.935 E0.08380
G1 X175.636 Y61.935 E0.02365
G1 X175.636 Y64.607 E0.08380
G1 X176.390 Y64.607 E0.02365
G1 X176.390 Y61.935 E0.08380
G1 X177.144 Y61.935 E0.02365
G1 X177.144 Y64.558 E0.08224
G1 X177.898 Y64.558 E0.02365
G1 X177.898 Y61.935 E0.08224
G1 X178.653 Y61.935 E0.02365
G1 X178.653 Y64.558 E0.08224
G1 X179.407 Y64.558 E0.02365
G1 X179.407 Y61.935 E0.08224
G1 X180.161 Y61.935 E0.02365
G1 X180.161 Y64.558 E0.08224
G1 X180.915 Y64.558 E0.02365
