; generated by PrusaSlicer 2.1.0+win64 on 2020-03-05 at 14:06:15 UTC

; 

; external perimeters extrusion width = 0.45mm
; perimeters extrusion width = 0.45mm
; infill extrusion width = 0.45mm
; solid infill extrusion width = 0.45mm
; top infill extrusion width = 0.40mm
; first layer extrusion width = 0.42mm

M73 P0 R162
M73 Q0 S162
M201 X1000 Y1000 Z1000 E5000 ; sets maximum accelerations, mm/sec^2
M203 X200 Y200 Z12 E120 ; sets maximum feedrates, mm/sec
M204 P1250 R1250 T1250 ; sets acceleration (P, T) and retract acceleration (R), mm/sec^2
M205 X8.00 Y8.00 Z0.40 E1.50 ; sets the jerk limits, mm/sec
M205 S0 T0 ; sets the minimum extruding and travel feed rate, mm/sec
M107
M862.3 P "MK3SMMU2S" ; printer model check
M862.1 P0.4 ; nozzle diameter check
M115 U3.8.1 ; tell printer latest fw version
G90 ; use absolute coordinates
M83 ; extruder relative mode
M104 S215 ; set extruder temp
M140 S60 ; set bed temp
Tx
M190 S60 ; wait for bed temp
M109 S215 ; wait for extruder temp
G28 W ; home all without mesh bed level
G80 ; mesh bed leveling

G21 ; set units to millimeters

;go outside print area
G1 Y-3.0 F1000.0
G1 Z0.4 F1000.0
; select extruder
Tc
; purge line
G1 X55.0 F2000.0
G1 Z0.3 F1000.0
G92 E0.0
G1 X240.0 E25.0 F2200.0
M73 Q0 S162
M73 P0 R162
G1 Y-2.0 F1000.0
G1 X55.0 E25 F1400.0
G1 Z0.20 F1000.0
G1 X5.0 E4.0 F1000.0

M221 S100
G92 E0.0
G21 ; set units to millimeters
G90 ; use absolute coordinates
M83 ; use relative distances for extrusion
M900 K30 ; Filament gcode
;BEFORE_LAYER_CHANGE
G92 E0.0
;0.2


G1 E-0.80000 F2100.00000
G1 Z0.600 F10800.000
;AFTER_LAYER_CHANGE
;0.2
G1 X47.621 Y103.335
G1 Z0.200
G1 E0.80000 F2100.00000
M204 S500
G1 F1200
G1 X48.266 Y102.342 E0.03714
G1 X48.603 Y101.993 E0.01521
G1 X49.012 Y101.725 E0.01532
G1 X49.470 Y101.554 E0.01532
G1 X49.950 Y101.489 E0.01521
G1 X200.004 Y101.489 E4.70482
G1 X200.479 Y101.542 E0.01498
G1 X200.927 Y101.695 E0.01487
G1 X201.335 Y101.944 E0.01498
G1 X201.680 Y102.275 E0.01498
G1 X202.125 Y102.915 E0.02443
G1 X202.586 Y103.947 E0.03545
G1 X202.763 Y104.796 E0.02721
G1 X202.517 Y106.363 E0.04973
G1 X201.768 Y107.613 E0.04569
G1 X201.426 Y107.983 E0.01578
G1 X201.012 Y108.263 E0.01567
G1 X200.546 Y108.442 E0.01567
G1 X200.051 Y108.510 E0.01567
G1 X49.949 Y108.510 E4.70635
G1 X49.475 Y108.447 E0.01498
G1 X49.027 Y108.283 E0.01498
G1 X48.622 Y108.022 E0.01510
G1 X48.285 Y107.683 E0.01498
G1 X47.635 Y106.699 E0.03699
G1 X47.276 Y105.553 E0.03764
G1 X47.206 Y105.051 E0.01589
G1 X47.266 Y104.486 E0.01783
G1 X47.603 Y103.393 E0.03586
M204 S1000
G1 F8640
G1 X48.266 Y102.342 E-0.28683
G1 X48.603 Y101.993 E-0.11201
G1 X49.012 Y101.725 E-0.11285
G1 X49.470 Y101.554 E-0.11285
G1 X49.950 Y101.489 E-0.11201
G1 X50.052 Y101.489 E-0.02345
G1 E-0.04000 F2100.00000
G1 Z0.800 F10800.000
G1 X50.456 Y104.795
G1 Z0.200
G1 E0.80000 F2100.00000
M204 S500
G1 F1200
G1 X199.545 Y104.795 E4.67457
G1 X199.583 Y104.881 E0.00294
G1 X199.535 Y105.205 E0.01029
G1 X50.456 Y105.205 E4.67426
G1 X50.393 Y105.000 E0.00673
G1 X50.439 Y104.852 E0.00485
M204 S1000
G1 X50.177 Y104.418 F10800.000
M204 S500
G1 F1200
G1 X199.791 Y104.418 E4.69104
G1 X199.972 Y104.828 E0.01406
G1 X199.861 Y105.582 E0.02390
G1 X50.177 Y105.582 E4.69321
G1 X49.999 Y105.000 E0.01910
G1 X50.160 Y104.475 E0.01722
M204 S1000
G1 X50.524 Y104.618 F10800.000
M106 S255
;BEFORE_LAYER_CHANGE
G92 E0.0
;0.25


G1 F8640
G1 X53.451 Y104.474 E-0.76000
G1 E-0.04000 F2100.00000
G1 Z0.800 F10800.000
;AFTER_LAYER_CHANGE
;0.25
G1 X47.621 Y103.335
G1 Z0.250
G1 E0.80000 F2100.00000
G1 F1800
G1 X48.266 Y102.342 E0.01008
G1 X48.603 Y101.993 E0.00413
G1 X49.012 Y101.725 E0.00416
G1 X49.470 Y101.554 E0.00416
G1 X49.950 Y101.489 E0.00413
G1 X200.004 Y101.489 E1.27661
M73 Q0 S161
M73 P0 R161
G1 X200.479 Y101.542 E0.00407
G1 X200.927 Y101.695 E0.00403
G1 X201.335 Y101.944 E0.00407
G1 X201.680 Y102.275 E0.00407
G1 X202.125 Y102.915 E0.00663
G1 X202.586 Y103.947 E0.00962
G1 X202.763 Y104.796 E0.00738
G1 X202.517 Y106.363 E0.01349
G1 X201.768 Y107.613 E0.01240
G1 X201.426 Y107.983 E0.00428
G1 X201.012 Y108.263 E0.00425
G1 X200.546 Y108.442 E0.00425
G1 X200.051 Y108.510 E0.00425
G1 X49.949 Y108.510 E1.27703
G1 X49.475 Y108.447 E0.00407
G1 X49.027 Y108.283 E0.00407
G1 X48.622 Y108.022 E0.00410
G1 X48.285 Y107.683 E0.00407
G1 X47.635 Y106.699 E0.01004
G1 X47.276 Y105.553 E0.01021
G1 X47.206 Y105.051 E0.00431
G1 X47.266 Y104.486 E0.00484
G1 X47.603 Y103.393 E0.00973
G1 F8640
G1 X48.266 Y102.342 E-0.28683
G1 X48.603 Y101.993 E-0.11201
G1 X49.012 Y101.725 E-0.11285
G1 X49.470 Y101.554 E-0.11285
G1 X49.950 Y101.489 E-0.11201
G1 X50.052 Y101.489 E-0.02345
G1 E-0.04000 F2100.00000
G1 Z0.850 F10800.000
G1 X50.684 Y104.914
G1 Z0.250
G1 E0.80000 F2100.00000
M204 S300
G1 F1800
G1 X199.306 Y104.914 E1.35712
G1 X199.326 Y104.960 E0.00046
G1 X199.308 Y105.086 E0.00117
G1 X50.684 Y105.086 E1.35713
G1 X50.658 Y105.000 E0.00082
G1 X50.667 Y104.971 E0.00027
M204 S1000
G1 X50.360 Y104.475 F10800.000
M204 S300
G1 F1800
G1 X199.593 Y104.475 E1.36271
G1 X199.779 Y104.899 E0.00423
G1 X199.708 Y105.384 E0.00448
G1 X199.605 Y105.525 E0.00159
G1 X50.360 Y105.525 E1.36282
G1 X50.199 Y105.000 E0.00502
G1 X50.342 Y104.532 E0.00447
M204 S1000
G1 X49.974 Y104.233 F10800.000
M204 S300
G1 F1200
G1 X50.152 Y104.035 E0.00242
G1 X199.859 Y104.035 E1.36703
G1 X199.896 Y104.073 E0.00048
G1 X200.232 Y104.838 E0.00763
G1 X200.127 Y105.555 E0.00662
G1 X199.829 Y105.965 E0.00462
G1 X50.152 Y105.965 E1.36676
G1 X49.974 Y105.767 E0.00242
G1 X49.739 Y105.000 E0.00733
G1 X49.957 Y104.290 E0.00678
M204 S1000
G1 X50.240 Y104.223 F10800.000
;BEFORE_LAYER_CHANGE
G92 E0.0
;0.3


G1 F8640
G1 X50.152 Y104.035 E-0.07409
G1 X53.122 Y104.035 E-0.68591
G1 E-0.04000 F2100.00000
G1 Z0.850 F10800.000
;AFTER_LAYER_CHANGE
;0.3
G1 X47.621 Y103.335
G1 Z0.300
G1 E0.80000 F2100.00000
G1 F1800
G1 X48.266 Y102.342 E0.01008
G1 X48.603 Y101.993 E0.00413
G1 X49.012 Y101.725 E0.00416
G1 X49.470 Y101.554 E0.00416
G1 X49.950 Y101.489 E0.00413
G1 X200.004 Y101.489 E1.27661
G1 X200.479 Y101.542 E0.00407
G1 X200.927 Y101.695 E0.00403
G1 X201.335 Y101.944 E0.00407
G1 X201.680 Y102.275 E0.00407
G1 X202.125 Y102.915 E0.00663
G1 X202.586 Y103.947 E0.00962
G1 X202.763 Y104.796 E0.00738
G1 X202.517 Y106.363 E0.01349
G1 X201.768 Y107.613 E0.01240
G1 X201.426 Y107.983 E0.00428
G1 X201.012 Y108.263 E0.00425
G1 X200.546 Y108.442 E0.00425
G1 X200.051 Y108.510 E0.00425
G1 X49.949 Y108.510 E1.27703
G1 X49.475 Y108.447 E0.00407
G1 X49.027 Y108.283 E0.00407
G1 X48.622 Y108.022 E0.00410
G1 X48.285 Y107.683 E0.00407
G1 X47.635 Y106.699 E0.01004
G1 X47.276 Y105.553 E0.01021
G1 X47.206 Y105.051 E0.00431
G1 X47.266 Y104.486 E0.00484
G1 X47.603 Y103.393 E0.00973
G1 F8640
G1 X48.266 Y102.342 E-0.28683
G1 X48.603 Y101.993 E-0.11201
G1 X49.012 Y101.725 E-0.11285
G1 X49.470 Y101.554 E-0.11285
G1 X49.950 Y101.489 E-0.11201
G1 X50.052 Y101.489 E-0.02345
G1 E-0.04000 F2100.00000
G1 Z0.900 F10800.000
G1 X50.615 Y104.781
G1 Z0.300
G1 E0.80000 F2100.00000
M204 S300
G1 F1800
G1 X199.357 Y104.781 E1.35822
G1 X199.437 Y104.963 E0.00181
G1 X199.391 Y105.219 E0.00238
G1 X50.615 Y105.219 E1.35853
M73 Q1 S160
M73 P1 R160
G1 X50.548 Y105.000 E0.00209
G1 X50.597 Y104.838 E0.00154
M204 S1000
G1 X50.252 Y104.467 F10800.000
M204 S300
G1 F1800
G1 X50.364 Y104.342 E0.00154
G1 X199.644 Y104.342 E1.36312
G1 X199.890 Y104.902 E0.00559
G1 X199.820 Y105.375 E0.00437
G1 X199.615 Y105.658 E0.00319
G1 X50.364 Y105.658 E1.36286
G1 X50.252 Y105.533 E0.00154
G1 X50.088 Y105.000 E0.00509
G1 X50.234 Y104.524 E0.00454
M204 S1000
G1 X49.629 Y105.000 F10800.000
M204 S300
G1 F1200
G1 X49.860 Y104.245 E0.00721
G1 X50.169 Y103.902 E0.00421
G1 X199.827 Y103.902 E1.36658
G1 X200.012 Y104.088 E0.00239
G1 X200.343 Y104.841 E0.00751
G1 X200.239 Y105.546 E0.00651
G1 X199.839 Y106.098 E0.00622
G1 X50.169 Y106.098 E1.36669
G1 X49.860 Y105.755 E0.00421
G1 X49.647 Y105.057 E0.00666
M204 S1000
G1 X49.984 Y104.816 F10800.000
;BEFORE_LAYER_CHANGE
G92 E0.0
;0.35


G1 F8640
G1 X49.860 Y104.245 E-0.19389
G1 X50.169 Y103.902 E-0.10651
G1 X52.159 Y103.902 E-0.45960
G1 E-0.04000 F2100.00000
G1 Z0.900 F10800.000
;AFTER_LAYER_CHANGE
;0.35
G1 X50.551 Y104.677
G1 Z0.350
G1 E0.80000 F2100.00000
M204 S300
G1 F1800
G1 X199.420 Y104.677 E1.35938
G1 X199.547 Y104.966 E0.00288
G1 X199.513 Y105.196 E0.00212
G1 X199.421 Y105.323 E0.00144
G1 X50.551 Y105.323 E1.35938
G1 X50.529 Y105.299 E0.00030
G1 X50.438 Y105.000 E0.00285
G1 X50.521 Y104.727 E0.00260
M204 S1000
G1 X50.355 Y104.238 F10800.000
M204 S300
G1 F1800
G1 X199.641 Y104.238 E1.36318
G1 X199.759 Y104.356 E0.00152
G1 X200.000 Y104.905 E0.00548
G1 X199.932 Y105.366 E0.00426
G1 X199.645 Y105.762 E0.00447
G1 X50.355 Y105.762 E1.36321
G1 X50.138 Y105.520 E0.00297
G1 X49.978 Y105.000 E0.00497
G1 X50.138 Y104.480 E0.00497
G1 X50.315 Y104.282 E0.00243
M204 S1000
G1 X50.160 Y103.798 F10800.000
M204 S300
G1 F1200
G1 X199.823 Y103.798 E1.36663
G1 X200.128 Y104.103 E0.00394
G1 X200.453 Y104.844 E0.00738
G1 X200.351 Y105.537 E0.00640
G1 X199.869 Y106.202 E0.00750
G1 X50.160 Y106.202 E1.36705
M73 Q2 S159
M73 P2 R159
G1 X49.746 Y105.742 E0.00565
G1 X49.519 Y105.000 E0.00709
G1 X49.746 Y104.258 E0.00709
G1 X50.120 Y103.843 E0.00510
M204 S1000
G1 X50.469 Y104.052 F10800.000
G1 F8640
G1 X53.411 Y103.842 E-0.76000
G1 E-0.04000 F2100.00000
G1 Z0.950 F10800.000
G1 X50.667 Y105.000
G1 Z0.350
G1 E0.80000 F2100.00000
G1 F1200
G1 X199.209 Y105.000 E0.63911
G1 X199.310 Y105.066 E0.00052
;BEFORE_LAYER_CHANGE
G92 E0.0
;0.4


G1 F8640
G1 X199.209 Y105.000 E-0.02791
G1 X196.039 Y105.000 E-0.73209
G1 E-0.04000 F2100.00000
G1 Z0.950 F10800.000
;AFTER_LAYER_CHANGE
;0.4
G1 X199.459 Y104.577
G1 Z0.400
G1 E0.80000 F2100.00000
M204 S300
G1 F1800
G1 X199.506 Y104.623 E0.00060
G1 X199.658 Y104.969 E0.00345
G1 X199.627 Y105.180 E0.00195
G1 X199.445 Y105.424 E0.00277
G1 X50.538 Y105.423 E1.35972
G1 X50.415 Y105.286 E0.00168
G1 X50.327 Y105.000 E0.00273
G1 X50.415 Y104.714 E0.00273
G1 X50.538 Y104.577 E0.00168
G1 X199.399 Y104.577 E1.35930
M204 S1000
G1 F8640
G1 X199.506 Y104.623 E-0.02678
G1 X199.658 Y104.969 E-0.08719
G1 X199.627 Y105.180 E-0.04925
G1 X199.445 Y105.424 E-0.07013
G1 X197.165 Y105.424 E-0.52663
G1 E-0.04000 F2100.00000
G1 Z1.000 F10800.000
G1 X199.666 Y105.863
G1 Z0.400
G1 E0.80000 F2100.00000
M204 S300
G1 F1800
G1 X50.343 Y105.862 E1.36352
G1 X50.024 Y105.508 E0.00436
G1 X49.868 Y105.000 E0.00485
G1 X50.024 Y104.492 E0.00485
G1 X50.343 Y104.138 E0.00436
G1 X199.641 Y104.138 E1.36330
G1 X199.875 Y104.371 E0.00301
G1 X200.111 Y104.908 E0.00535
G1 X200.045 Y105.353 E0.00411
G1 X199.702 Y105.815 E0.00525
M204 S1000
G1 X199.887 Y106.302 F10800.000
M204 S300
G1 F1200
G1 X50.147 Y106.302 E1.36733
G1 X49.632 Y105.729 E0.00703
G1 X49.408 Y105.000 E0.00697
G1 X49.632 Y104.271 E0.00697
G1 X50.147 Y103.698 E0.00703
G1 X199.823 Y103.698 E1.36675
G1 X200.244 Y104.119 E0.00543
G1 X200.563 Y104.847 E0.00726
G1 X200.464 Y105.527 E0.00627
G1 X199.923 Y106.254 E0.00828
M204 S1000
G1 X199.573 Y106.054 F10800.000
G1 F8640
G1 X196.631 Y106.255 E-0.76000
G1 E-0.04000 F2100.00000
G1 Z1.000 F10800.000
G1 X199.425 Y105.044
G1 Z0.400
G1 E0.80000 F2100.00000
G1 F1200
G1 X199.244 Y105.023 E0.00137
G1 X199.209 Y105.000 E0.00032
G1 X50.770 Y105.000 E1.11566
G1 X50.607 Y104.837 E0.00173
;BEFORE_LAYER_CHANGE
G92 E0.0
;0.45


G1 F8640
G1 X50.770 Y105.000 E-0.05321
G1 X53.831 Y105.000 E-0.70679
G1 E-0.04000 F2100.00000
G1 Z1.000 F10800.000
;AFTER_LAYER_CHANGE
;0.45
G1 X50.526 Y105.523
G1 Z0.450
G1 E0.80000 F2100.00000
M204 S300
G1 F1800
G1 X50.301 Y105.273 E0.00307
G1 X50.217 Y105.000 E0.00261
G1 X50.301 Y104.727 E0.00261
G1 X50.526 Y104.477 E0.00307
G1 X199.460 Y104.477 E1.35997
G1 X199.622 Y104.639 E0.00209
G1 X199.768 Y104.972 E0.00333
G1 X199.738 Y105.178 E0.00190
G1 X199.487 Y105.523 E0.00390
G1 X50.586 Y105.523 E1.35967
M73 Q2 S158
M73 P2 R158
M204 S1000
G1 X50.330 Y105.963 F10800.000
M204 S300
G1 F1800
G1 X49.909 Y105.495 E0.00574
G1 X49.758 Y105.000 E0.00473
G1 X49.909 Y104.505 E0.00473
G1 X50.330 Y104.037 E0.00574
G1 X199.642 Y104.037 E1.36342
G1 X199.991 Y104.386 E0.00451
G1 X200.221 Y104.911 E0.00523
G1 X200.157 Y105.348 E0.00404
G1 X199.711 Y105.963 E0.00693
G1 X50.390 Y105.963 E1.36350
M204 S1000
G1 X50.135 Y106.402 F10800.000
M204 S300
G1 F1200
G1 X49.518 Y105.717 E0.00842
G1 X49.298 Y105.000 E0.00685
G1 X49.518 Y104.283 E0.00685
G1 X50.135 Y103.598 E0.00842
G1 X199.824 Y103.598 E1.36686
G1 X200.360 Y104.134 E0.00692
G1 X200.674 Y104.850 E0.00714
G1 X200.576 Y105.519 E0.00617
G1 X199.996 Y106.318 E0.00902
G1 X199.890 Y106.402 E0.00123
G1 X50.195 Y106.402 E1.36692
M204 S1000
G1 X50.149 Y106.002 F10800.000
G1 F8640
G1 X49.518 Y105.717 E-0.22234
G1 X49.298 Y105.000 E-0.17309
G1 X49.518 Y104.283 E-0.17309
G1 X50.073 Y103.667 E-0.19147
G1 E-0.04000 F2100.00000
G1 Z1.050 F10800.000
G1 X50.706 Y105.391
G1 Z0.450
G1 E0.80000 F2100.00000
M204 S800
G1 F1800
G1 X51.291 Y104.806 E0.00759
G1 X51.915 Y104.806 E0.00572
G1 X51.527 Y105.194 E0.00503
G1 X52.151 Y105.194 E0.00572
G1 X52.538 Y104.806 E0.00503
G1 X53.162 Y104.806 E0.00572
G1 X52.774 Y105.194 E0.00503
G1 X53.398 Y105.194 E0.00572
G1 X53.786 Y104.806 E0.00503
G1 X54.409 Y104.806 E0.00572
G1 X54.022 Y105.194 E0.00503
G1 X54.645 Y105.194 E0.00572
G1 X55.033 Y104.806 E0.00503
G1 X55.657 Y104.806 E0.00572
G1 X55.269 Y105.194 E0.00503
G1 X55.893 Y105.194 E0.00572
G1 X56.280 Y104.806 E0.00503
G1 X56.904 Y104.806 E0.00572
G1 X56.516 Y105.194 E0.00503
G1 X57.140 Y105.194 E0.00572
G1 X57.528 Y104.806 E0.00503
G1 X58.151 Y104.806 E0.00572
G1 X57.764 Y105.194 E0.00503
G1 X58.387 Y105.194 E0.00572
G1 X58.775 Y104.806 E0.00503
G1 X59.399 Y104.806 E0.00572
G1 X59.011 Y105.194 E0.00503
G1 X59.635 Y105.194 E0.00572
G1 X60.022 Y104.806 E0.00503
G1 X60.646 Y104.806 E0.00572
G1 X60.258 Y105.194 E0.00503
G1 X60.882 Y105.194 E0.00572
G1 X61.270 Y104.806 E0.00503
G1 X61.893 Y104.806 E0.00572
G1 X61.506 Y105.194 E0.00503
G1 X62.129 Y105.194 E0.00572
G1 X62.517 Y104.806 E0.00503
G1 X63.141 Y104.806 E0.00572
G1 X62.753 Y105.194 E0.00503
G1 X63.377 Y105.194 E0.00572
G1 X63.764 Y104.806 E0.00503
G1 X64.388 Y104.806 E0.00572
G1 X64.000 Y105.194 E0.00503
G1 X64.624 Y105.194 E0.00572
G1 X65.012 Y104.806 E0.00503
G1 X65.635 Y104.806 E0.00572
G1 X65.248 Y105.194 E0.00503
G1 X65.872 Y105.194 E0.00572
G1 X66.259 Y104.806 E0.00503
G1 X66.883 Y104.806 E0.00572
G1 X66.495 Y105.194 E0.00503
G1 X67.119 Y105.194 E0.00572
G1 X67.507 Y104.806 E0.00503
G1 X68.130 Y104.806 E0.00572
G1 X67.743 Y105.194 E0.00503
G1 X68.366 Y105.194 E0.00572
G1 X68.754 Y104.806 E0.00503
G1 X69.378 Y104.806 E0.00572
G1 X68.990 Y105.194 E0.00503
G1 X69.614 Y105.194 E0.00572
G1 X70.001 Y104.806 E0.00503
G1 X70.625 Y104.806 E0.00572
G1 X70.237 Y105.194 E0.00503
G1 X70.861 Y105.194 E0.00572
G1 X71.249 Y104.806 E0.00503
G1 X71.872 Y104.806 E0.00572
G1 X71.485 Y105.194 E0.00503
G1 X72.108 Y105.194 E0.00572
G1 X72.496 Y104.806 E0.00503
G1 X73.120 Y104.806 E0.00572
G1 X72.732 Y105.194 E0.00503
G1 X73.356 Y105.194 E0.00572
G1 X73.743 Y104.806 E0.00503
G1 X74.367 Y104.806 E0.00572
G1 X73.979 Y105.194 E0.00503
G1 X74.603 Y105.194 E0.00572
G1 X74.991 Y104.806 E0.00503
G1 X75.614 Y104.806 E0.00572
G1 X75.227 Y105.194 E0.00503
G1 X75.850 Y105.194 E0.00572
G1 X76.238 Y104.806 E0.00503
G1 X76.862 Y104.806 E0.00572
G1 X76.474 Y105.194 E0.00503
G1 X77.098 Y105.194 E0.00572
G1 X77.485 Y104.806 E0.00503
G1 X78.109 Y104.806 E0.00572
G1 X77.721 Y105.194 E0.00503
G1 X78.345 Y105.194 E0.00572
G1 X78.733 Y104.806 E0.00503
G1 X79.356 Y104.806 E0.00572
G1 X78.969 Y105.194 E0.00503
G1 X79.592 Y105.194 E0.00572
G1 X79.980 Y104.806 E0.00503
G1 X80.604 Y104.806 E0.00572
G1 X80.216 Y105.194 E0.00503
G1 X80.840 Y105.194 E0.00572
G1 X81.227 Y104.806 E0.00503
G1 X81.851 Y104.806 E0.00572
G1 X81.463 Y105.194 E0.00503
G1 X82.087 Y105.194 E0.00572
G1 X82.475 Y104.806 E0.00503
G1 X83.098 Y104.806 E0.00572
G1 X82.711 Y105.194 E0.00503
G1 X83.335 Y105.194 E0.00572
G1 X83.722 Y104.806 E0.00503
G1 X84.346 Y104.806 E0.00572
G1 X83.958 Y105.194 E0.00503
G1 X84.582 Y105.194 E0.00572
G1 X84.969 Y104.806 E0.00503
G1 X85.593 Y104.806 E0.00572
